%
(Header)
(Generated by gcodetools from Inkscape.)
(Using default header. To add your own header create file "header" in the output dir.)
M3
(Header end.)
G21 (All units in mm)

(Start cutting path id: path815)
(Change tool to Default tool)

G00 Z0.000000
G00 X210.341130 Y148.468230

G01 Z0.000000 F100.0(Penetrate)
G01 X201.891598 Y89.660172 Z0.000000 F400.000000
G01 X179.537380 Y43.485346 Z0.000000
G01 X143.380767 Y10.351636 Z0.000000
G01 X105.170560 Y0.000020 Z0.000000
G01 X65.523881 Y11.110287 Z0.000000
G01 X30.803746 Y43.485351 Z0.000000
G01 X9.086233 Y87.698730 Z0.000000
G01 X-0.000000 Y148.468229 Z0.000000
G01 X9.086231 Y209.237732 Z0.000000
G01 X30.803744 Y253.451113 Z0.000000
G01 X65.523880 Y285.826179 Z0.000000
G01 X105.170560 Y296.936447 Z0.000000
G01 X143.380768 Y286.584831 Z0.000000
G01 X179.537382 Y253.451118 Z0.000000
G01 X201.891600 Y207.276290 Z0.000000
G01 X210.341130 Y148.468230 Z0.000000
G01 X210.341130 Y148.468230 Z0.000000
G00 Z0.000000

(End cutting path id: path815)


(Footer)
M5
G00 X0.0000 Y0.0000
M2
(Using default footer. To add your own footer create file "footer" in the output dir.)
(end)
%