%
(Header)
(Generated by gcodetools from Inkscape.)
(Using default header. To add your own header create file "header" in the output dir.)
M3
(Header end.)
G21 (All units in mm)

(Start cutting path id: path5035)
(Change tool to Default tool)

G00 Z0.000000
G00 X193.989690 Y223.999995

G01 Z0.000000 F100.0(Penetrate)
G01 X193.989690 Y303.999992 Z0.000000 F400.000000
G01 X221.702500 Y288.000003 Z0.000000
G01 X221.702500 Y303.999992 Z0.000000
G01 X193.989690 Y320.000008 Z0.000000
G01 X166.276880 Y303.999992 Z0.000000
G01 X166.276880 Y288.000003 Z0.000000
G01 X193.989690 Y303.999992 Z0.000000
G00 Z0.000000

(End cutting path id: path5035)


(Start cutting path id: path2561)
(Change tool to Default tool)

G00 Z0.000000
G00 X186.356870 Y336.000000

G01 Z0.000000 F100.0(Penetrate)
G01 X186.190038 Y336.031596 Z0.000000 F400.000000
G01 X186.060540 Y336.116417 Z0.000000
G01 X185.975716 Y336.245921 Z0.000000
G01 X185.944120 Y336.412750 Z0.000000
G01 X185.944120 Y341.376333 Z0.000000
G01 X185.975716 Y341.543162 Z0.000000
G01 X186.060540 Y341.672666 Z0.000000
G01 X186.190038 Y341.757487 Z0.000000
G01 X186.356870 Y341.789083 Z0.000000
G01 X186.522442 Y341.756649 Z0.000000
G01 X186.642620 Y341.672666 Z0.000000
G01 X186.727444 Y341.543162 Z0.000000
G01 X186.759040 Y341.376333 Z0.000000
G01 X186.759040 Y336.412750 Z0.000000
G01 X186.727444 Y336.245921 Z0.000000
G01 X186.642620 Y336.116417 Z0.000000
G01 X186.522442 Y336.032434 Z0.000000
G01 X186.356870 Y336.000000 Z0.000000
G01 X186.356870 Y336.000000 Z0.000000
G00 Z0.000000

(Change tool to Default tool)

G00 Z0.000000
G00 X186.346270 Y342.889750

G01 Z0.000000 F100.0(Penetrate)
G01 X186.121228 Y342.934118 Z0.000000 F400.000000
G01 X185.933520 Y343.059083 Z0.000000
G01 X185.816875 Y343.245067 Z0.000000
G01 X185.774770 Y343.471833 Z0.000000
G01 X185.820906 Y343.705846 Z0.000000
G01 X185.944100 Y343.884583 Z0.000000
G01 X186.130081 Y344.001227 Z0.000000
G01 X186.356850 Y344.043333 Z0.000000
G01 X186.573391 Y344.002141 Z0.000000
G01 X186.759020 Y343.884583 Z0.000000
G01 X186.882214 Y343.705846 Z0.000000
G01 X186.928350 Y343.471833 Z0.000000
G01 X186.883983 Y343.246793 Z0.000000
G01 X186.759020 Y343.059083 Z0.000000
G01 X186.571303 Y342.934116 Z0.000000
G01 X186.346270 Y342.889750 Z0.000000
G01 X186.346270 Y342.889750 Z0.000000
G00 Z0.000000

(End cutting path id: path2561)


(Start cutting path id: path2559)
(Change tool to Default tool)

G00 Z0.000000
G00 X183.531280 Y341.852583

G01 Z0.000000 F100.0(Penetrate)
G02 X183.967893 Y341.816448 Z0.000000 I0.000000 J-2.655808 F400.000000
G02 X184.229780 Y341.736166 Z0.000000 I-0.170676 J-1.024051
G01 X184.433641 Y341.580123 Z0.000000
G01 X184.494370 Y341.408083 Z0.000000
G01 X184.490879 Y341.345150 Z0.000000
G01 X184.483770 Y341.312833 Z0.000000
G01 X184.421595 Y341.180444 Z0.000000
G01 X184.346190 Y341.111750 Z0.000000
G01 X184.256747 Y341.075374 Z0.000000
G01 X184.102770 Y341.058830 Z0.000000
G02 X184.007709 Y341.061894 Z0.000000 I0.000000 J1.476263
G02 X183.774690 Y341.080000 Z0.000000 I0.574042 J8.896154
G03 X183.689771 Y341.087060 Z0.000000 I-0.127845 J-1.023483
G03 X183.520690 Y341.090580 Z0.000000 I-0.169081 J-4.059223
G03 X182.770021 Y340.971587 Z0.000000 I-0.000000 J-2.427301
G03 X182.218940 Y340.667247 Z0.000000 I0.515007 J-1.583647
G03 X181.854251 Y340.182583 Z0.000000 I0.898204 J-1.055398
G03 X181.721520 Y339.566580 Z0.000000 I1.363062 J-0.616003
G01 X181.721520 Y336.402164 Z0.000000
G01 X181.690733 Y336.224416 Z0.000000
G01 X181.615690 Y336.105830 Z0.000000
G01 X181.497116 Y336.030788 Z0.000000
G01 X181.319370 Y336.000000 Z0.000000
G01 X181.141622 Y336.030788 Z0.000000
G01 X181.023030 Y336.105833 Z0.000000
G01 X180.947987 Y336.224419 Z0.000000
G01 X180.917200 Y336.402167 Z0.000000
G01 X180.917200 Y341.386917 Z0.000000
G01 X180.947987 Y341.564664 Z0.000000
G01 X181.023030 Y341.683250 Z0.000000
G01 X181.141622 Y341.758295 Z0.000000
G01 X181.319370 Y341.789083 Z0.000000
G01 X181.497117 Y341.758295 Z0.000000
G01 X181.615700 Y341.683250 Z0.000000
G01 X181.690743 Y341.564664 Z0.000000
G01 X181.721530 Y341.386917 Z0.000000
G01 X181.721530 Y340.921250 Z0.000000
G02 X182.072418 Y341.315568 Z0.000000 I1.771922 J-1.223483
G02 X182.504700 Y341.609166 Z0.000000 I1.392771 J-1.585625
G02 X182.996019 Y341.789992 Z0.000000 I0.996482 J-1.949636
G02 X183.531280 Y341.852583 Z0.000000 I0.535261 J-2.257397
G01 X183.531280 Y341.852583 Z0.000000
G00 Z0.000000

(End cutting path id: path2559)


(Start cutting path id: path2557)
(Change tool to Default tool)

G00 Z0.000000
G00 X178.591680 Y341.789083

G01 Z0.000000 F100.0(Penetrate)
G01 X178.758512 Y341.757487 Z0.000000 F400.000000
G01 X178.888010 Y341.672666 Z0.000000
G01 X178.971996 Y341.552485 Z0.000000
G01 X179.004430 Y341.386917 Z0.000000
G01 X179.004430 Y336.412750 Z0.000000
G01 X178.972834 Y336.245921 Z0.000000
G01 X178.888010 Y336.116417 Z0.000000
G01 X178.758512 Y336.031596 Z0.000000
G01 X178.591680 Y336.000000 Z0.000000
G01 X178.424848 Y336.031596 Z0.000000
G01 X178.295350 Y336.116417 Z0.000000
G01 X178.218720 Y336.244126 Z0.000000
G01 X178.189510 Y336.412750 Z0.000000
G01 X178.189510 Y336.772583 Z0.000000
G02 X177.806827 Y336.426725 Z0.000000 I-1.792529 J1.598744
G02 X177.342850 Y336.158750 Z0.000000 I-1.521238 J2.098245
G02 X176.833054 Y335.994537 Z0.000000 I-1.008145 J2.256340
G02 X176.263350 Y335.936500 Z0.000000 I-0.569704 J2.767133
G02 X175.532801 Y336.020967 Z0.000000 I-0.000000 J3.201484
G02 X174.908680 Y336.254000 Z0.000000 I0.599517 J2.557946
G02 X174.384195 Y336.641045 Z0.000000 I1.072931 J2.002816
G02 X173.977350 Y337.174750 Z0.000000 I1.693197 J1.712653
G02 X173.732786 Y337.812821 Z0.000000 I2.172257 J1.198499
G02 X173.638680 Y338.635250 Z0.000000 I3.546688 J0.822429
G01 X173.638680 Y341.386917 Z0.000000
G01 X173.669362 Y341.543541 Z0.000000
G01 X173.755100 Y341.672666 Z0.000000
G01 X173.884219 Y341.758401 Z0.000000
G01 X174.040850 Y341.789083 Z0.000000
G01 X174.207674 Y341.757489 Z0.000000
G01 X174.337180 Y341.672666 Z0.000000
G01 X174.422918 Y341.543541 Z0.000000
G01 X174.453600 Y341.386917 Z0.000000
G01 X174.453600 Y338.635250 Z0.000000
G03 X174.606703 Y337.758627 Z0.000000 I2.586196 J0.000000
G03 X174.972180 Y337.195917 Z0.000000 I1.383259 J0.498377
G03 X175.554492 Y336.845336 Z0.000000 I1.147848 J1.247667
G03 X176.348010 Y336.709083 Z0.000000 I0.793518 J2.242543
G03 X176.854142 Y336.763100 Z0.000000 I-0.000000 J2.398216
G03 X177.279350 Y336.910167 Z0.000000 I-0.395452 J1.831575
G03 X177.665080 Y337.155639 Z0.000000 I-0.797573 J1.679091
G03 X177.946100 Y337.460500 Z0.000000 I-0.973114 J1.178966
G03 X178.127329 Y337.839389 Z0.000000 I-1.174881 J0.794751
G03 X178.189510 Y338.254250 Z0.000000 I-1.352844 J0.414861
G01 X178.189510 Y341.386917 Z0.000000
G01 X178.219530 Y341.554398 Z0.000000
G01 X178.295350 Y341.672666 Z0.000000
G01 X178.424848 Y341.757487 Z0.000000
G01 X178.591680 Y341.789083 Z0.000000
G01 X178.591680 Y341.789083 Z0.000000
G00 Z0.000000

(End cutting path id: path2557)


(Start cutting path id: path2555)
(Change tool to Default tool)

G00 Z0.000000
G00 X170.022320 Y335.947083

G01 Z0.000000 F100.0(Penetrate)
G02 X169.224015 Y336.048079 Z0.000000 I-0.000000 J3.205521 F400.000000
G02 X168.540650 Y336.328083 Z0.000000 I0.672423 J2.614985
G02 X167.955082 Y336.788937 Z0.000000 I1.487368 J2.492317
G02 X167.503490 Y337.386417 Z0.000000 I2.093996 J2.052102
G02 X167.230288 Y338.088597 Z0.000000 I2.561656 J1.400919
G02 X167.133070 Y338.889250 Z0.000000 I3.248334 J0.800653
G02 X167.229485 Y339.711560 Z0.000000 I3.554892 J-0.000000
G02 X167.492910 Y340.402667 Z0.000000 I2.759867 J-0.656204
G02 X167.927256 Y341.009268 Z0.000000 I2.482888 J-1.319022
G02 X168.487740 Y341.461000 Z0.000000 I1.907157 J-1.792722
G02 X169.150542 Y341.741627 Z0.000000 I1.327744 J-2.212907
G02 X169.916490 Y341.842000 Z0.000000 I0.765948 J-2.872306
G02 X171.111670 Y341.573643 Z0.000000 I0.000000 J-2.795657
G02 X172.064900 Y340.826000 Z0.000000 I-1.169011 J-2.471964
G01 X172.127750 Y340.722440 Z0.000000
G01 X172.149600 Y340.603750 Z0.000000
G01 X172.108219 Y340.455859 Z0.000000
G01 X171.969680 Y340.307417 Z0.000000
G01 X171.869757 Y340.259510 Z0.000000
G01 X171.768600 Y340.243917 Z0.000000
G01 X171.625029 Y340.278849 Z0.000000
G01 X171.461680 Y340.402667 Z0.000000
G03 X171.117200 Y340.714570 Z0.000000 I-1.772064 J-1.610968
G03 X170.763180 Y340.921250 Z0.000000 I-1.110914 J-1.496334
G03 X170.371460 Y341.053363 Z0.000000 I-0.763266 J-1.616326
G03 X169.916520 Y341.101167 Z0.000000 I-0.454940 J-2.140875
G03 X169.356246 Y341.025398 Z0.000000 I-0.000000 J-2.109363
G03 X168.879350 Y340.815417 Z0.000000 I0.475919 J-1.727417
G03 X168.481494 Y340.487440 Z0.000000 I0.919518 J-1.520728
G03 X168.170270 Y340.032250 Z0.000000 I1.506662 J-1.364133
G03 X167.992154 Y339.509412 Z0.000000 I2.106519 J-1.009388
G03 X167.926850 Y338.889250 Z0.000000 I2.912024 J-0.620162
G03 X167.996850 Y338.281970 Z0.000000 I2.669194 J0.000000
G03 X168.191430 Y337.756833 Z0.000000 I2.181447 J0.509677
G03 X168.511268 Y337.311887 Z0.000000 I1.805436 J0.960364
G03 X168.932270 Y336.973667 Z0.000000 I1.442867 J1.364888
G03 X169.429679 Y336.764307 Z0.000000 I0.980793 J1.634655
G03 X170.022350 Y336.687917 Z0.000000 I0.592671 J2.260924
G03 X170.820262 Y336.817400 Z0.000000 I-0.000000 J2.523220
G03 X171.387600 Y337.143000 Z0.000000 I-0.522500 J1.567502
G01 X171.535100 Y337.232336 Z0.000000
G01 X171.673350 Y337.259417 Z0.000000
G01 X171.792958 Y337.238344 Z0.000000
G01 X171.906180 Y337.174747 Z0.000000
G01 X172.019543 Y337.031738 Z0.000000
G01 X172.054350 Y336.888997 Z0.000000
G01 X172.027171 Y336.763518 Z0.000000
G01 X171.948520 Y336.656164 Z0.000000
G02 X171.110263 Y336.140967 Z0.000000 I-1.700733 J1.827652
G02 X170.022350 Y335.947080 Z0.000000 I-1.087913 J2.955229
G01 X170.022320 Y335.947083 Z0.000000
G00 Z0.000000

(End cutting path id: path2555)


(Start cutting path id: path2553)
(Change tool to Default tool)

G00 Z0.000000
G00 X163.622050 Y341.842000

G01 Z0.000000 F100.0(Penetrate)
G02 X164.377211 Y341.742859 Z0.000000 I-0.000000 J-2.925606 F400.000000
G02 X165.008470 Y341.471583 Z0.000000 I-0.614543 J-2.300152
G02 X165.537927 Y341.042788 Z0.000000 I-1.225391 J-2.054334
G02 X165.939800 Y340.466167 Z0.000000 I-1.867520 J-1.729908
G02 X166.187228 Y339.798103 Z0.000000 I-2.462919 J-1.292034
G02 X166.278470 Y338.995083 Z0.000000 I-3.488087 J-0.803020
G01 X166.249273 Y338.837845 Z0.000000
G01 X166.172630 Y338.719917 Z0.000000
G01 X166.056534 Y338.651419 Z0.000000
G01 X165.897470 Y338.624667 Z0.000000
G01 X161.621800 Y338.624667 Z0.000000
G03 X161.845223 Y337.826373 Z0.000000 I2.361321 J0.230463
G03 X162.299130 Y337.217083 Z0.000000 I1.795913 J0.864194
G03 X162.948648 Y336.824183 Z0.000000 I1.321079 J1.450604
G03 X163.780800 Y336.677333 Z0.000000 I0.832152 J2.284344
G03 X164.156751 Y336.708448 Z0.000000 I-0.000000 J2.286819
G03 X164.542800 Y336.804333 Z0.000000 I-0.418011 J2.508066
G03 X164.917751 Y336.970619 Z0.000000 I-0.855587 J2.435101
G03 X165.167220 Y337.143000 Z0.000000 I-0.672543 J1.240006
G01 X165.313314 Y337.223802 Z0.000000
G01 X165.452970 Y337.248833 Z0.000000
G01 X165.563072 Y337.229435 Z0.000000
G01 X165.685800 Y337.164163 Z0.000000
G01 X165.790444 Y337.022743 Z0.000000
G01 X165.823380 Y336.878413 Z0.000000
G01 X165.795019 Y336.753374 Z0.000000
G01 X165.706970 Y336.634996 Z0.000000
G02 X165.335284 Y336.376945 Z0.000000 I-1.515362 J1.785965
G02 X164.817970 Y336.137579 Z0.000000 I-1.814936 J3.243712
G02 X164.270579 Y335.991685 Z0.000000 I-1.197238 J3.392174
G02 X163.780800 Y335.947079 Z0.000000 I-0.489779 J2.666584
G02 X162.959787 Y336.046091 Z0.000000 I-0.000000 J3.453443
G02 X162.267380 Y336.317496 Z0.000000 I0.664007 J2.712948
G02 X161.673349 Y336.771215 Z0.000000 I1.397000 J2.444750
G02 X161.219630 Y337.365246 Z0.000000 I1.991031 J1.991031
G02 X160.947623 Y338.067728 Z0.000000 I2.529815 J1.383468
G02 X160.849220 Y338.889246 Z0.000000 I3.380020 J0.821518
G02 X160.943564 Y339.723283 Z0.000000 I3.733777 J0.000000
G02 X161.198470 Y340.413246 Z0.000000 I2.794860 J-0.640489
G02 X161.632577 Y341.019720 Z0.000000 I2.485054 J-1.320173
G02 X162.182720 Y341.460996 Z0.000000 I1.833865 J-1.722721
G02 X162.845699 Y341.740983 Z0.000000 I1.319012 J-2.198353
G02 X163.622050 Y341.841996 Z0.000000 I0.776351 J-2.932875
G01 X163.622050 Y341.842000 Z0.000000
G00 Z0.000000

(Change tool to Default tool)

G00 Z0.000000
G00 X163.622050 Y341.111750

G01 Z0.000000 F100.0(Penetrate)
G03 X162.871386 Y340.976303 Z0.000000 I0.000000 J-2.147864 F400.000000
G03 X162.288550 Y340.614333 Z0.000000 I0.607300 J-1.628079
G03 X161.875936 Y340.056369 Z0.000000 I1.330540 J-1.415479
G03 X161.642970 Y339.302000 Z0.000000 I2.256327 J-1.109962
G01 X165.516470 Y339.302000 Z0.000000
G03 X165.311925 Y340.059065 Z0.000000 I-2.443178 J-0.253937
G03 X164.923800 Y340.614333 Z0.000000 I-1.670689 J-0.754509
G03 X164.360211 Y340.975522 Z0.000000 I-1.150632 J-1.175113
G03 X163.622050 Y341.111750 Z0.000000 I-0.738161 J-1.931781
G01 X163.622050 Y341.111750 Z0.000000
G00 Z0.000000

(End cutting path id: path2553)


(Start cutting path id: path2551)
(Change tool to Default tool)

G00 Z0.000000
G00 X156.794640 Y335.894167

G01 Z0.000000 F100.0(Penetrate)
G02 X155.818068 Y336.008163 Z0.000000 I0.000000 J4.240009 F400.000000
G02 X155.006060 Y336.317500 Z0.000000 I0.762766 J3.222684
G02 X154.330983 Y336.841642 Z0.000000 I1.414804 J2.519028
G02 X153.894810 Y337.481667 Z0.000000 I1.716294 J1.638280
G01 X153.863857 Y337.558758 Z0.000000
G01 X153.852510 Y337.651000 Z0.000000
G01 X153.880714 Y337.786606 Z0.000000
G01 X153.958340 Y337.894417 Z0.000000
G01 X154.086350 Y337.970270 Z0.000000
G01 X154.265260 Y338.000250 Z0.000000
G01 X154.386335 Y337.981453 Z0.000000
G01 X154.498090 Y337.926170 Z0.000000
G01 X154.597368 Y337.847233 Z0.000000
G01 X154.667420 Y337.735670 Z0.000000
G03 X154.974568 Y337.322292 Z0.000000 I1.383342 J0.707051
G03 X155.471760 Y336.963086 Z0.000000 I1.526629 J1.589379
G03 X156.061734 Y336.755591 Z0.000000 I1.117597 J2.235194
G03 X156.794670 Y336.677336 Z0.000000 I0.732936 J3.393207
G03 X157.621390 Y336.796910 Z0.000000 I-0.000000 J2.917704
G03 X158.191670 Y337.090086 Z0.000000 I-0.487161 J1.648851
G03 X158.574520 Y337.583745 Z0.000000 I-0.833110 J1.041392
G03 X158.720840 Y338.264836 Z0.000000 I-1.512012 J0.681091
G03 X158.591696 Y338.874701 Z0.000000 I-1.504575 J-0.000000
G03 X158.223420 Y339.386670 Z0.000000 I-1.407733 J-0.624187
G03 X157.683277 Y339.728514 Z0.000000 I-1.171129 J-1.252828
G03 X156.752340 Y339.968753 Z0.000000 I-1.427414 J-3.607459
G02 X155.589184 Y340.262629 Z0.000000 I0.565843 J4.688415
G02 X154.815590 Y340.730753 Z0.000000 I0.982154 J2.496307
G02 X154.295960 Y341.435192 Z0.000000 I1.427515 J1.596881
G02 X154.117090 Y342.254753 Z0.000000 I1.788133 J0.819561
G02 X154.207408 Y342.860914 Z0.000000 I2.079264 J-0.000000
G02 X154.455760 Y343.366003 Z0.000000 I1.677597 J-0.511273
G02 X154.859001 Y343.785176 Z0.000000 I1.649812 J-1.183562
G02 X155.408260 Y344.106836 Z0.000000 I1.492859 J-1.919392
G02 X156.036877 Y344.299757 Z0.000000 I1.194134 J-2.770380
G02 X156.794670 Y344.371419 Z0.000000 I0.757793 J-3.970822
G02 X157.603648 Y344.271135 Z0.000000 I0.000000 J-3.313104
G02 X158.265760 Y344.001003 Z0.000000 I-0.622543 J-2.472401
G02 X158.838285 Y343.567003 Z0.000000 I-1.505012 J-2.580019
G02 X159.260590 Y343.037919 Z0.000000 I-1.844606 J-1.905410
G01 X159.315816 Y342.916006 Z0.000000
G01 X159.334690 Y342.783919 Z0.000000
G01 X159.286482 Y342.609873 Z0.000000
G01 X159.144190 Y342.466419 Z0.000000
G01 X159.056819 Y342.435409 Z0.000000
G01 X158.953690 Y342.424089 Z0.000000
G01 X158.840420 Y342.437389 Z0.000000
G01 X158.731440 Y342.477009 Z0.000000
G01 X158.645772 Y342.549599 Z0.000000
G01 X158.572690 Y342.646342 Z0.000000
G03 X157.838547 Y343.322624 Z0.000000 I-1.639841 J-1.043524
G03 X156.784110 Y343.588259 Z0.000000 I-1.074851 J-2.041006
G03 X155.961626 Y343.480885 Z0.000000 I-0.000000 J-3.203787
G03 X155.429440 Y343.228425 Z0.000000 I0.414772 J-1.561496
G03 X155.068995 Y342.798628 Z0.000000 I0.673245 J-0.930651
G03 X154.932030 Y342.201842 Z0.000000 I1.231681 J-0.596786
G03 X155.362194 Y341.340603 Z0.000000 I1.077232 J-0.000000
G03 X156.932280 Y340.699009 Z0.000000 I2.008575 J2.673385
G02 X158.172393 Y340.359835 Z0.000000 I-0.753785 J-5.192726
G02 X158.890190 Y339.894676 Z0.000000 I-0.882527 J-2.148251
G02 X159.357433 Y339.204320 Z0.000000 I-1.342411 J-1.411859
G02 X159.535780 Y338.275426 Z0.000000 I-2.329826 J-0.928894
G02 X159.437762 Y337.564270 Z0.000000 I-2.628851 J0.000000
G02 X159.175940 Y336.994842 Z0.000000 I-1.928995 J0.542041
G02 X158.755818 Y336.525810 Z0.000000 I-1.845244 J1.230151
G02 X158.191690 Y336.169342 Z0.000000 I-1.600580 J1.908383
G02 X157.551730 Y335.968023 Z0.000000 I-1.228880 J2.788589
G02 X156.794690 Y335.894176 Z0.000000 I-0.757040 J3.843443
G01 X156.794640 Y335.894167 Z0.000000
G00 Z0.000000

(End cutting path id: path2551)


(Start cutting path id: path2563)
(Change tool to Default tool)

G00 Z0.000000
G00 X191.384610 Y336.814917

G01 Z0.000000 F100.0(Penetrate)
G01 X191.540006 Y336.783397 Z0.000000 F400.000000
G01 X191.659780 Y336.698500 Z0.000000
G01 X191.736403 Y336.570792 Z0.000000
G01 X191.765610 Y336.402167 Z0.000000
G01 X191.732743 Y336.247291 Z0.000000
G01 X191.638610 Y336.116417 Z0.000000
G01 X191.499303 Y336.031639 Z0.000000
G01 X191.321110 Y336.000000 Z0.000000
G01 X191.098860 Y336.000000 Z0.000000
G02 X190.557227 Y336.070075 Z0.000000 I0.000000 J2.128268
G02 X190.093450 Y336.264583 Z0.000000 I0.459276 J1.745240
G02 X189.697076 Y336.585747 Z0.000000 I1.062901 J1.716992
G02 X189.394950 Y336.994833 Z0.000000 I1.450154 J1.387104
G02 X189.216431 Y337.476440 Z0.000000 I1.801197 J0.941547
G02 X189.151530 Y338.042583 Z0.000000 I2.436844 J0.566143
G01 X189.151530 Y340.868333 Z0.000000
G01 X188.463610 Y340.868333 Z0.000000
G01 X188.304546 Y340.895085 Z0.000000
G01 X188.188450 Y340.963583 Z0.000000
G01 X188.118359 Y341.079048 Z0.000000
G01 X188.093250 Y341.217583 Z0.000000
G01 X188.120014 Y341.365251 Z0.000000
G01 X188.188450 Y341.471583 Z0.000000
G01 X188.306374 Y341.548220 Z0.000000
G01 X188.463610 Y341.577416 Z0.000000
G01 X189.151530 Y341.577416 Z0.000000
G01 X189.151530 Y343.217833 Z0.000000
G01 X189.180737 Y343.386458 Z0.000000
G01 X189.257360 Y343.514166 Z0.000000
G01 X189.386867 Y343.598988 Z0.000000
G01 X189.553700 Y343.630583 Z0.000000
G01 X189.720524 Y343.598989 Z0.000000
G01 X189.850030 Y343.514166 Z0.000000
G01 X189.934854 Y343.384662 Z0.000000
G01 X189.966450 Y343.217833 Z0.000000
G01 X189.966450 Y341.577416 Z0.000000
G01 X191.162360 Y341.577416 Z0.000000
G01 X191.318324 Y341.547381 Z0.000000
G01 X191.426950 Y341.471583 Z0.000000
G01 X191.503627 Y341.363350 Z0.000000
G01 X191.532780 Y341.217583 Z0.000000
G01 X191.505415 Y341.080752 Z0.000000
G01 X191.426950 Y340.963583 Z0.000000
G01 X191.320327 Y340.895900 Z0.000000
G01 X191.162360 Y340.868333 Z0.000000
G01 X189.966450 Y340.868333 Z0.000000
G01 X189.966450 Y338.042583 Z0.000000
G03 X190.054074 Y337.536709 Z0.000000 I1.504071 J-0.000000
G03 X190.283950 Y337.153583 Z0.000000 I1.072753 J0.383126
G03 X190.641025 Y336.906265 Z0.000000 I0.753387 J0.706301
G03 X191.098860 Y336.814917 Z0.000000 I0.457835 J1.101659
G01 X191.384610 Y336.814917 Z0.000000
G00 Z0.000000

(End cutting path id: path2563)


(Start cutting path id: path2565)
(Change tool to Default tool)

G00 Z0.000000
G00 X197.621840 Y341.757333

G01 Z0.000000 F100.0(Penetrate)
G01 X197.805672 Y341.621419 Z0.000000 F400.000000
G01 X197.865250 Y341.450417 Z0.000000
G01 X197.855040 Y341.357332 Z0.000000
G01 X197.822950 Y341.259917 Z0.000000
G01 X194.393950 Y333.724583 Z0.000000
G01 X194.258001 Y333.540735 Z0.000000
G01 X194.087030 Y333.481167 Z0.000000
G01 X193.983873 Y333.492490 Z0.000000
G01 X193.896530 Y333.523497 Z0.000000
G01 X193.714337 Y333.660529 Z0.000000
G01 X193.653120 Y333.840997 Z0.000000
G01 X193.663330 Y333.934082 Z0.000000
G01 X193.695420 Y334.031497 Z0.000000
G01 X194.743170 Y336.349247 Z0.000000
G01 X194.743170 Y336.359827 Z0.000000
G01 X192.383090 Y341.249327 Z0.000000
G01 X192.352105 Y341.336666 Z0.000000
G01 X192.340790 Y341.439827 Z0.000000
G01 X192.400440 Y341.622031 Z0.000000
G01 X192.573630 Y341.757327 Z0.000000
G01 X192.661001 Y341.788337 Z0.000000
G01 X192.764130 Y341.799657 Z0.000000
G01 X192.948134 Y341.741655 Z0.000000
G01 X193.081630 Y341.577407 Z0.000000
G01 X195.145380 Y337.227658 Z0.000000
G01 X197.113880 Y341.566824 Z0.000000
G01 X197.256562 Y341.742427 Z0.000000
G01 X197.431380 Y341.799657 Z0.000000
G01 X197.524414 Y341.789445 Z0.000000
G01 X197.621880 Y341.757327 Z0.000000
G01 X197.621840 Y341.757333 Z0.000000
G00 Z0.000000

(End cutting path id: path2565)


(Start cutting path id: path2567)
(Change tool to Default tool)

G00 Z0.000000
G00 X202.519770 Y336.000000

G01 Z0.000000 F100.0(Penetrate)
G01 X202.362058 Y336.029868 Z0.000000 F400.000000
G01 X202.223440 Y336.116417 Z0.000000
G01 X202.136889 Y336.255036 Z0.000000
G01 X202.107020 Y336.412750 Z0.000000
G01 X202.107020 Y343.852833 Z0.000000
G01 X202.137701 Y344.009457 Z0.000000
G01 X202.223440 Y344.138583 Z0.000000
G01 X202.363709 Y344.233550 Z0.000000
G01 X202.519770 Y344.265583 Z0.000000
G01 X202.686602 Y344.233987 Z0.000000
G01 X202.816100 Y344.149166 Z0.000000
G01 X202.900924 Y344.019662 Z0.000000
G01 X202.932520 Y343.852833 Z0.000000
G01 X202.932520 Y336.783167 Z0.000000
G01 X207.070600 Y336.783167 Z0.000000
G01 X207.237433 Y336.751572 Z0.000000
G01 X207.366940 Y336.666750 Z0.000000
G01 X207.451833 Y336.546975 Z0.000000
G01 X207.483350 Y336.391583 Z0.000000
G01 X207.452671 Y336.234957 Z0.000000
G01 X207.366940 Y336.105833 Z0.000000
G01 X207.239228 Y336.029208 Z0.000000
G01 X207.070600 Y336.000000 Z0.000000
G01 X202.519770 Y336.000000 Z0.000000
G00 Z0.000000

(End cutting path id: path2567)


(Start cutting path id: path2569)
(Change tool to Default tool)

G00 Z0.000000
G00 X211.164370 Y341.842000

G01 Z0.000000 F100.0(Penetrate)
G02 X211.919521 Y341.742859 Z0.000000 I-0.000000 J-2.925548 F400.000000
G02 X212.550780 Y341.471583 Z0.000000 I-0.614551 J-2.300165
G02 X213.080239 Y341.042789 Z0.000000 I-1.225415 J-2.054374
G02 X213.482120 Y340.466167 Z0.000000 I-1.867571 J-1.729974
G02 X213.729541 Y339.798105 Z0.000000 I-2.462976 J-1.292026
G02 X213.820780 Y338.995083 Z0.000000 I-3.488195 J-0.803022
G01 X213.791585 Y338.837843 Z0.000000
G01 X213.714950 Y338.719917 Z0.000000
G01 X213.598854 Y338.651420 Z0.000000
G01 X213.439780 Y338.624667 Z0.000000
G01 X209.164120 Y338.624667 Z0.000000
G03 X209.387543 Y337.826373 Z0.000000 I2.361321 J0.230463
G03 X209.841450 Y337.217083 Z0.000000 I1.795913 J0.864194
G03 X210.490968 Y336.824183 Z0.000000 I1.321079 J1.450604
G03 X211.323120 Y336.677333 Z0.000000 I0.832152 J2.284344
G03 X211.699071 Y336.708448 Z0.000000 I-0.000000 J2.286819
G03 X212.085120 Y336.804333 Z0.000000 I-0.418011 J2.508066
G03 X212.460070 Y336.970620 Z0.000000 I-0.855550 J2.434996
G03 X212.709530 Y337.143000 Z0.000000 I-0.672488 J1.239885
G01 X212.855633 Y337.223803 Z0.000000
G01 X212.995280 Y337.248833 Z0.000000
G01 X213.105392 Y337.229434 Z0.000000
G01 X213.228120 Y337.164163 Z0.000000
G01 X213.332764 Y337.022743 Z0.000000
G01 X213.365700 Y336.878413 Z0.000000
G01 X213.337338 Y336.753376 Z0.000000
G01 X213.249280 Y336.634996 Z0.000000
G02 X212.877594 Y336.376945 Z0.000000 I-1.515362 J1.785965
G02 X212.360280 Y336.137579 Z0.000000 I-1.814936 J3.243712
G02 X211.812889 Y335.991685 Z0.000000 I-1.197251 J3.392211
G02 X211.323120 Y335.947079 Z0.000000 I-0.489769 J2.666505
G02 X210.502107 Y336.046091 Z0.000000 I-0.000000 J3.453443
G02 X209.809700 Y336.317496 Z0.000000 I0.664007 J2.712948
G02 X209.215669 Y336.771215 Z0.000000 I1.397000 J2.444750
G02 X208.761950 Y337.365246 Z0.000000 I1.991031 J1.991031
G02 X208.489935 Y338.067729 Z0.000000 I2.529762 J1.383477
G02 X208.391530 Y338.889246 Z0.000000 I3.379924 J0.821517
G02 X208.485874 Y339.723283 Z0.000000 I3.733777 J0.000000
G02 X208.740780 Y340.413246 Z0.000000 I2.794860 J-0.640489
G02 X209.174894 Y341.019722 Z0.000000 I2.485166 J-1.320269
G02 X209.725030 Y341.460996 Z0.000000 I1.833892 J-1.722747
G02 X210.388009 Y341.740982 Z0.000000 I1.319003 J-2.198339
G02 X211.164370 Y341.841996 Z0.000000 I0.776361 J-2.932932
G01 X211.164370 Y341.842000 Z0.000000
G00 Z0.000000

(Change tool to Default tool)

G00 Z0.000000
G00 X211.164370 Y341.111750

G01 Z0.000000 F100.0(Penetrate)
G03 X210.413697 Y340.976302 Z0.000000 I0.000000 J-2.147889 F400.000000
G03 X209.830870 Y340.614333 Z0.000000 I0.607278 J-1.628022
G03 X209.418254 Y340.056370 Z0.000000 I1.330565 J-1.415505
G03 X209.185280 Y339.302000 Z0.000000 I2.256370 J-1.110000
G01 X213.058780 Y339.302000 Z0.000000
G03 X212.854237 Y340.059067 Z0.000000 I-2.443230 J-0.253942
G03 X212.466120 Y340.614333 Z0.000000 I-1.670695 J-0.754499
G03 X211.902531 Y340.975522 Z0.000000 I-1.150632 J-1.175113
G03 X211.164370 Y341.111750 Z0.000000 I-0.738161 J-1.931781
G01 X211.164370 Y341.111750 Z0.000000
G00 Z0.000000

(End cutting path id: path2569)


(Start cutting path id: path2571)
(Change tool to Default tool)

G00 Z0.000000
G00 X219.490810 Y341.757333

G01 Z0.000000 F100.0(Penetrate)
G01 X219.654527 Y341.614542 Z0.000000 F400.000000
G01 X219.713060 Y341.418667 Z0.000000
G01 X219.706450 Y341.356367 Z0.000000
G01 X219.681260 Y341.270500 Z0.000000
G01 X217.363510 Y336.275167 Z0.000000
G01 X217.183494 Y336.068718 Z0.000000
G01 X216.961390 Y336.000000 Z0.000000
G01 X216.750932 Y336.068052 Z0.000000
G01 X216.580390 Y336.275167 Z0.000000
G01 X214.230890 Y341.259917 Z0.000000
G01 X214.207928 Y341.325477 Z0.000000
G01 X214.199190 Y341.408083 Z0.000000
G01 X214.257102 Y341.594542 Z0.000000
G01 X214.432020 Y341.746750 Z0.000000
G01 X214.509134 Y341.777728 Z0.000000
G01 X214.601360 Y341.789080 Z0.000000
G01 X214.703208 Y341.775196 Z0.000000
G01 X214.791860 Y341.736160 Z0.000000
G01 X214.872656 Y341.670551 Z0.000000
G01 X214.929440 Y341.577410 Z0.000000
G01 X216.961440 Y337.174744 Z0.000000
G01 X218.972270 Y341.577410 Z0.000000
G01 X219.029003 Y341.670533 Z0.000000
G01 X219.109860 Y341.736160 Z0.000000
G01 X219.210017 Y341.783294 Z0.000000
G01 X219.321520 Y341.799660 Z0.000000
G01 X219.413709 Y341.788312 Z0.000000
G01 X219.490860 Y341.757330 Z0.000000
G01 X219.490810 Y341.757333 Z0.000000
G00 Z0.000000

(End cutting path id: path2571)


(Start cutting path id: path2573)
(Change tool to Default tool)

G00 Z0.000000
G00 X223.029280 Y341.842000

G01 Z0.000000 F100.0(Penetrate)
G02 X223.784431 Y341.742859 Z0.000000 I-0.000000 J-2.925548 F400.000000
G02 X224.415690 Y341.471583 Z0.000000 I-0.614551 J-2.300165
G02 X224.945149 Y341.042789 Z0.000000 I-1.225415 J-2.054374
G02 X225.347030 Y340.466167 Z0.000000 I-1.867571 J-1.729974
G02 X225.594451 Y339.798105 Z0.000000 I-2.462976 J-1.292026
G02 X225.685690 Y338.995083 Z0.000000 I-3.488195 J-0.803022
G01 X225.656495 Y338.837843 Z0.000000
G01 X225.579860 Y338.719917 Z0.000000
G01 X225.463764 Y338.651420 Z0.000000
G01 X225.304690 Y338.624667 Z0.000000
G01 X221.029030 Y338.624667 Z0.000000
G03 X221.252453 Y337.826373 Z0.000000 I2.361321 J0.230463
G03 X221.706360 Y337.217083 Z0.000000 I1.795913 J0.864194
G03 X222.355878 Y336.824183 Z0.000000 I1.321079 J1.450604
G03 X223.188030 Y336.677333 Z0.000000 I0.832152 J2.284344
G03 X223.563981 Y336.708448 Z0.000000 I-0.000000 J2.286819
G03 X223.950030 Y336.804333 Z0.000000 I-0.418011 J2.508066
G03 X224.324980 Y336.970620 Z0.000000 I-0.855550 J2.434996
G03 X224.574440 Y337.143000 Z0.000000 I-0.672488 J1.239885
G01 X224.720543 Y337.223803 Z0.000000
G01 X224.860190 Y337.248833 Z0.000000
G01 X224.970302 Y337.229434 Z0.000000
G01 X225.093030 Y337.164163 Z0.000000
G01 X225.197674 Y337.022743 Z0.000000
G01 X225.230610 Y336.878413 Z0.000000
G01 X225.202248 Y336.753376 Z0.000000
G01 X225.114190 Y336.634996 Z0.000000
G02 X224.742504 Y336.376945 Z0.000000 I-1.515362 J1.785965
G02 X224.225190 Y336.137579 Z0.000000 I-1.814936 J3.243712
G02 X223.677799 Y335.991685 Z0.000000 I-1.197251 J3.392211
G02 X223.188030 Y335.947079 Z0.000000 I-0.489769 J2.666505
G02 X222.367017 Y336.046091 Z0.000000 I-0.000000 J3.453443
G02 X221.674610 Y336.317496 Z0.000000 I0.664007 J2.712948
G02 X221.080579 Y336.771215 Z0.000000 I1.397000 J2.444750
G02 X220.626860 Y337.365246 Z0.000000 I1.991031 J1.991031
G02 X220.354845 Y338.067729 Z0.000000 I2.529762 J1.383477
G02 X220.256440 Y338.889246 Z0.000000 I3.379924 J0.821517
G02 X220.350784 Y339.723283 Z0.000000 I3.733777 J0.000000
G02 X220.605690 Y340.413246 Z0.000000 I2.794860 J-0.640489
G02 X221.039804 Y341.019722 Z0.000000 I2.485166 J-1.320269
G02 X221.589940 Y341.460996 Z0.000000 I1.833892 J-1.722747
G02 X222.252919 Y341.740982 Z0.000000 I1.319003 J-2.198339
G02 X223.029280 Y341.841996 Z0.000000 I0.776361 J-2.932932
G01 X223.029280 Y341.842000 Z0.000000
G00 Z0.000000

(Change tool to Default tool)

G00 Z0.000000
G00 X223.029280 Y341.111750

G01 Z0.000000 F100.0(Penetrate)
G03 X222.278607 Y340.976302 Z0.000000 I0.000000 J-2.147889 F400.000000
G03 X221.695780 Y340.614333 Z0.000000 I0.607278 J-1.628022
G03 X221.283164 Y340.056370 Z0.000000 I1.330565 J-1.415505
G03 X221.050190 Y339.302000 Z0.000000 I2.256370 J-1.110000
G01 X224.923690 Y339.302000 Z0.000000
G03 X224.719147 Y340.059067 Z0.000000 I-2.443230 J-0.253942
G03 X224.331030 Y340.614333 Z0.000000 I-1.670695 J-0.754499
G03 X223.767441 Y340.975522 Z0.000000 I-1.150632 J-1.175113
G03 X223.029280 Y341.111750 Z0.000000 I-0.738161 J-1.931781
G01 X223.029280 Y341.111750 Z0.000000
G00 Z0.000000

(End cutting path id: path2573)


(Start cutting path id: path2575)
(Change tool to Default tool)

G00 Z0.000000
G00 X228.302750 Y336.000000

G01 Z0.000000 F100.0(Penetrate)
G02 X227.720263 Y336.132557 Z0.000000 I-0.000000 J1.346067 F400.000000
G02 X227.244420 Y336.508000 Z0.000000 I0.599661 J1.249290
G02 X226.956019 Y337.065529 Z0.000000 I1.368363 J1.061189
G02 X226.842250 Y337.830917 Z0.000000 I2.517705 J0.765388
G01 X226.842250 Y343.863416 Z0.000000
G01 X226.874684 Y344.028985 Z0.000000
G01 X226.958670 Y344.149166 Z0.000000
G01 X227.087789 Y344.234901 Z0.000000
G01 X227.244420 Y344.265583 Z0.000000
G01 X227.409984 Y344.233151 Z0.000000
G01 X227.530170 Y344.149166 Z0.000000
G01 X227.614149 Y344.028987 Z0.000000
G01 X227.646580 Y343.863416 Z0.000000
G01 X227.646580 Y337.830917 Z0.000000
G03 X227.699231 Y337.391028 Z0.000000 I1.863927 J0.000000
G03 X227.826500 Y337.090083 Z0.000000 I0.985261 J0.239282
G01 X228.053890 Y336.873263 Z0.000000
G01 X228.302750 Y336.804333 Z0.000000
G01 X228.567330 Y336.804333 Z0.000000
G01 X228.711200 Y336.772933 Z0.000000
G01 X228.821330 Y336.687917 Z0.000000
G01 X228.889133 Y336.571527 Z0.000000
G01 X228.916630 Y336.402167 Z0.000000
G01 X228.880592 Y336.238964 Z0.000000
G01 X228.779050 Y336.105833 Z0.000000
G01 X228.640922 Y336.030608 Z0.000000
G01 X228.440330 Y336.000000 Z0.000000
G01 X228.302750 Y336.000000 Z0.000000
G00 Z0.000000

(End cutting path id: path2575)


(Start cutting path id: path2577)
(Change tool to Default tool)

G00 Z0.000000
G00 X232.051900 Y335.947083

G01 Z0.000000 F100.0(Penetrate)
G02 X231.405819 Y336.003653 Z0.000000 I-0.000000 J3.717704 F400.000000
G02 X230.792480 Y336.169333 Z0.000000 I0.619991 J3.513290
G02 X230.228310 Y336.449985 Z0.000000 I1.004691 J2.727017
G02 X229.818810 Y336.793750 Z0.000000 I1.129528 J1.761303
G01 X229.735497 Y336.928902 Z0.000000
G01 X229.712980 Y337.037167 Z0.000000
G01 X229.753175 Y337.197951 Z0.000000
G01 X229.882310 Y337.354667 Z0.000000
G01 X230.016874 Y337.427226 Z0.000000
G01 X230.146900 Y337.449917 Z0.000000
G01 X230.309683 Y337.412680 Z0.000000
G01 X230.453810 Y337.301750 Z0.000000
G03 X230.737551 Y337.047549 Z0.000000 I1.101881 J0.944471
G03 X231.120560 Y336.846667 Z0.000000 I1.054475 J1.544930
G03 X231.551577 Y336.730253 Z0.000000 I0.826583 J2.204255
G03 X232.051900 Y336.687917 Z0.000000 I0.500323 J2.935251
G03 X232.767699 Y336.768681 Z0.000000 I-0.000000 J3.212386
G03 X233.163150 Y336.941917 Z0.000000 I-0.257123 J1.124915
G01 X233.442649 Y337.245309 Z0.000000
G01 X233.544150 Y337.608667 Z0.000000
G01 X233.453987 Y337.942169 Z0.000000
G01 X233.173730 Y338.243667 Z0.000000
G03 X232.779445 Y338.437713 Z0.000000 I-0.867551 J-1.265190
G03 X231.998980 Y338.624667 Z0.000000 I-1.578436 J-4.866844
G02 X231.004019 Y338.889274 Z0.000000 I0.846932 J5.187487
G02 X230.443230 Y339.206750 Z0.000000 I0.721622 J1.928701
G02 X230.061210 Y339.689089 Z0.000000 I0.961926 J1.154312
G02 X229.935230 Y340.222750 Z0.000000 I1.067322 J0.533661
G02 X230.096706 Y340.912234 Z0.000000 I1.552750 J0.000000
G02 X230.527900 Y341.418667 Z0.000000 I1.227413 J-0.608279
G02 X231.168766 Y341.722914 Z0.000000 I1.213800 J-1.729666
G02 X232.030730 Y341.842000 Z0.000000 I0.861964 J-3.059969
G02 X232.714138 Y341.774329 Z0.000000 I-0.000000 J-3.484696
G02 X233.247810 Y341.598583 Z0.000000 I-0.457453 J-2.287258
G02 X233.722921 Y341.311391 Z0.000000 I-0.936503 J-2.085878
G02 X234.083900 Y340.942417 Z0.000000 I-1.220341 J-1.554965
G01 X234.151530 Y340.800000 Z0.000000
G01 X234.168600 Y340.699000 Z0.000000
G01 X234.125797 Y340.542806 Z0.000000
G01 X233.999270 Y340.413250 Z0.000000
G01 X233.920115 Y340.376105 Z0.000000
G01 X233.798190 Y340.360330 Z0.000000
G01 X233.594140 Y340.402213 Z0.000000
G01 X233.427770 Y340.519080 Z0.000000
G03 X232.834153 Y340.946383 Z0.000000 I-1.217331 J-1.065157
G03 X232.009600 Y341.111747 Z0.000000 I-0.824553 J-1.973040
G03 X231.450107 Y341.039839 Z0.000000 I-0.000000 J-2.212568
G03 X231.078270 Y340.868330 Z0.000000 I0.294826 J-1.128023
G01 X230.814657 Y340.589666 Z0.000000
G01 X230.729020 Y340.275664 Z0.000000
G01 X230.813518 Y339.938311 Z0.000000
G01 X231.057100 Y339.661830 Z0.000000
G03 X231.406848 Y339.493922 Z0.000000 I0.738707 J1.090494
G03 X232.221270 Y339.301997 Z0.000000 I1.809223 J5.853389
G02 X233.302938 Y339.005713 Z0.000000 I-0.925414 J-5.501089
G02 X233.840520 Y338.677580 Z0.000000 I-0.632966 J-1.641420
G02 X234.200918 Y338.196641 Z0.000000 I-0.937282 J-1.077868
G02 X234.327350 Y337.619247 Z0.000000 I-1.255212 J-0.577394
G02 X234.250880 Y337.158651 Z0.000000 I-1.425372 J0.000000
G02 X234.031020 Y336.751414 Z0.000000 I-1.325293 J0.452534
G02 X233.702567 Y336.425732 Z0.000000 I-1.270618 J0.952963
G02 X233.226690 Y336.158747 Z0.000000 I-1.311142 J1.779398
G02 X232.696792 Y336.004711 Z0.000000 I-0.998388 J2.446079
G02 X232.051940 Y335.947080 Z0.000000 I-0.644852 J3.578921
G01 X232.051900 Y335.947083 Z0.000000
G00 Z0.000000

(End cutting path id: path2577)


(Start cutting path id: path4905)
(Change tool to Default tool)

G00 Z0.000000
G00 X180.133280 Y215.999985

G01 Z0.000000 F100.0(Penetrate)
G01 X152.420460 Y199.999995 Z0.000000 F400.000000
G00 Z0.000000

(End cutting path id: path4905)


(Start cutting path id: path4955)
(Change tool to Default tool)

G00 Z0.000000
G00 X138.564060 Y160.000010

G01 Z0.000000 F100.0(Penetrate)
G01 X138.564060 Y144.000000 Z0.000000 F400.000000
G00 Z0.000000

(End cutting path id: path4955)


(Start cutting path id: path4961)
(Change tool to Default tool)

G00 Z0.000000
G00 X138.564060 Y144.000000

G01 Z0.000000 F100.0(Penetrate)
G01 X83.138438 Y176.000000 Z0.000000 F400.000000
G01 X83.138438 Y160.000010 Z0.000000
G01 X83.138438 Y176.000000 Z0.000000
G01 X138.564060 Y207.999995 Z0.000000
G01 X180.133280 Y184.000000 Z0.000000
G00 Z0.000000

(End cutting path id: path4961)


(Start cutting path id: path4971)
(Change tool to Default tool)

G00 Z0.000000
G00 X180.133280 Y167.999980

G01 Z0.000000 F100.0(Penetrate)
G01 X152.420470 Y184.000000 Z0.000000 F400.000000
G01 X41.569208 Y184.000000 Z0.000000
G00 Z0.000000

(End cutting path id: path4971)


(Start cutting path id: path2512)
(Change tool to Default tool)

G00 Z0.000000
G00 X43.040305 Y185.214530

G01 Z0.000000 F100.0(Penetrate)
G01 X42.882590 Y185.244399 Z0.000000 F400.000000
G01 X42.743971 Y185.330950 Z0.000000
G01 X42.657423 Y185.469568 Z0.000000
G01 X42.627555 Y185.627280 Z0.000000
G01 X42.627555 Y193.067360 Z0.000000
G01 X42.658237 Y193.223991 Z0.000000
G01 X42.743971 Y193.353110 Z0.000000
G01 X42.884240 Y193.448076 Z0.000000
G01 X43.040305 Y193.480110 Z0.000000
G01 X43.207135 Y193.448517 Z0.000000
G01 X43.336638 Y193.363700 Z0.000000
G01 X43.421460 Y193.234193 Z0.000000
G01 X43.453055 Y193.067360 Z0.000000
G01 X43.453055 Y185.997700 Z0.000000
G01 X47.591138 Y185.997700 Z0.000000
G01 X47.757967 Y185.966104 Z0.000000
G01 X47.887471 Y185.881280 Z0.000000
G01 X47.972368 Y185.761506 Z0.000000
G01 X48.003888 Y185.606110 Z0.000000
G01 X47.973208 Y185.449488 Z0.000000
G01 X47.887471 Y185.320360 Z0.000000
G01 X47.759763 Y185.243737 Z0.000000
G01 X47.591138 Y185.214530 Z0.000000
G01 X43.040305 Y185.214530 Z0.000000
G00 Z0.000000

(End cutting path id: path2512)


(Start cutting path id: path2514)
(Change tool to Default tool)

G00 Z0.000000
G00 X51.684904 Y191.056530

G01 Z0.000000 F100.0(Penetrate)
G02 X52.440061 Y190.957388 Z0.000000 I0.000000 J-2.925559 F400.000000
G02 X53.071320 Y190.686110 Z0.000000 I-0.614549 J-2.300147
G02 X53.600778 Y190.257318 Z0.000000 I-1.225387 J-2.054345
G02 X54.002654 Y189.680700 Z0.000000 I-1.867521 J-1.729926
G02 X54.250080 Y189.012631 Z0.000000 I-2.462994 J-1.292046
G02 X54.341320 Y188.209610 Z0.000000 I-3.488145 J-0.803021
G01 X54.312124 Y188.052374 Z0.000000
G01 X54.235487 Y187.934450 Z0.000000
G01 X54.119397 Y187.865990 Z0.000000
G01 X53.960320 Y187.839250 Z0.000000
G01 X49.684654 Y187.839250 Z0.000000
G03 X49.908062 Y187.040957 Z0.000000 I2.361082 J0.230357
G03 X50.361987 Y186.431660 Z0.000000 I1.795824 J0.864151
G03 X51.011502 Y186.038760 Z0.000000 I1.321072 J1.450590
G03 X51.843654 Y185.891910 Z0.000000 I0.832152 J2.284339
G03 X52.219605 Y185.923025 Z0.000000 I-0.000000 J2.286819
G03 X52.605654 Y186.018910 Z0.000000 I-0.418011 J2.508066
G03 X52.980608 Y186.185201 Z0.000000 I-0.855651 J2.435195
G03 X53.230070 Y186.357580 Z0.000000 I-0.672531 J1.239966
G01 X53.376167 Y186.438380 Z0.000000
G01 X53.515820 Y186.463410 Z0.000000
G01 X53.625925 Y186.444005 Z0.000000
G01 X53.748654 Y186.378710 Z0.000000
G01 X53.853301 Y186.237289 Z0.000000
G01 X53.886237 Y186.092960 Z0.000000
G01 X53.857874 Y185.967917 Z0.000000
G01 X53.769820 Y185.849540 Z0.000000
G02 X53.398134 Y185.591491 Z0.000000 I-1.515408 J1.786036
G02 X52.880820 Y185.352120 Z0.000000 I-1.815037 J3.243874
G02 X52.333429 Y185.206226 Z0.000000 I-1.197243 J3.392188
G02 X51.843654 Y185.161620 Z0.000000 I-0.489775 J2.666553
G02 X51.022644 Y185.260633 Z0.000000 I0.000000 J3.453396
G02 X50.330237 Y185.532040 Z0.000000 I0.664012 J2.712939
G02 X49.736206 Y185.985759 Z0.000000 I1.397000 J2.444750
G02 X49.282487 Y186.579790 Z0.000000 I1.991031 J1.991031
G02 X49.010475 Y187.282270 Z0.000000 I2.529748 J1.383464
G02 X48.912070 Y188.103790 Z0.000000 I3.379964 J0.821520
G02 X49.006414 Y188.937827 Z0.000000 I3.733777 J0.000000
G02 X49.261320 Y189.627790 Z0.000000 I2.794860 J-0.640489
G02 X49.695429 Y190.234262 Z0.000000 I2.485106 J-1.320221
G02 X50.245570 Y190.675540 Z0.000000 I1.833904 J-1.722758
G02 X50.908549 Y190.955527 Z0.000000 I1.319008 J-2.198347
G02 X51.684904 Y191.056540 Z0.000000 I0.776355 J-2.932898
G01 X51.684904 Y191.056530 Z0.000000
G00 Z0.000000

(Change tool to Default tool)

G00 Z0.000000
G00 X51.684904 Y190.326280

G01 Z0.000000 F100.0(Penetrate)
G03 X50.934237 Y190.190832 Z0.000000 I-0.000000 J-2.147861 F400.000000
G03 X50.351404 Y189.828860 Z0.000000 I0.607294 J-1.628055
G03 X49.938792 Y189.270902 Z0.000000 I1.330525 J-1.415472
G03 X49.705820 Y188.516530 Z0.000000 I2.256369 J-1.109992
G01 X53.579320 Y188.516530 Z0.000000
G03 X53.374792 Y189.273592 Z0.000000 I-2.442900 J-0.253817
G03 X52.986654 Y189.828860 Z0.000000 I-1.670560 J-0.754448
G03 X52.423064 Y190.190052 Z0.000000 I-1.150635 J-1.175109
G03 X51.684904 Y190.326280 Z0.000000 I-0.738160 J-1.931768
G01 X51.684904 Y190.326280 Z0.000000
G00 Z0.000000

(End cutting path id: path2514)


(Start cutting path id: path2516)
(Change tool to Default tool)

G00 Z0.000000
G00 X60.011340 Y190.971860

G01 Z0.000000 F100.0(Penetrate)
G01 X60.175058 Y190.829072 Z0.000000 F400.000000
G01 X60.233590 Y190.633200 Z0.000000
G01 X60.226990 Y190.570897 Z0.000000
G01 X60.201840 Y190.485030 Z0.000000
G01 X57.884091 Y185.489700 Z0.000000
G01 X57.704039 Y185.283245 Z0.000000
G01 X57.481924 Y185.214530 Z0.000000
G01 X57.271467 Y185.282583 Z0.000000
G01 X57.100924 Y185.489700 Z0.000000
G01 X54.751424 Y190.474450 Z0.000000
G01 X54.728424 Y190.540016 Z0.000000
G01 X54.719674 Y190.622610 Z0.000000
G01 X54.777586 Y190.809069 Z0.000000
G01 X54.952507 Y190.961280 Z0.000000
G01 X55.029598 Y190.992233 Z0.000000
G01 X55.121841 Y191.003580 Z0.000000
G01 X55.223695 Y190.989701 Z0.000000
G01 X55.312341 Y190.950680 Z0.000000
G01 X55.393166 Y190.885074 Z0.000000
G01 X55.449924 Y190.791930 Z0.000000
G01 X57.481924 Y186.389260 Z0.000000
G01 X59.492757 Y190.791930 Z0.000000
G01 X59.549508 Y190.885059 Z0.000000
G01 X59.630340 Y190.950680 Z0.000000
G01 X59.730543 Y190.997821 Z0.000000
G01 X59.842007 Y191.014180 Z0.000000
G01 X59.934246 Y191.002834 Z0.000000
G01 X60.011340 Y190.971880 Z0.000000
G01 X60.011340 Y190.971860 Z0.000000
G00 Z0.000000

(End cutting path id: path2516)


(Start cutting path id: path2518)
(Change tool to Default tool)

G00 Z0.000000
G00 X63.549812 Y191.056530

G01 Z0.000000 F100.0(Penetrate)
G02 X64.304970 Y190.957388 Z0.000000 I0.000000 J-2.925565 F400.000000
G02 X64.936229 Y190.686110 Z0.000000 I-0.614548 J-2.300146
G02 X65.465687 Y190.257318 Z0.000000 I-1.225385 J-2.054341
G02 X65.867562 Y189.680700 Z0.000000 I-1.867515 J-1.729920
G02 X66.114988 Y189.012631 Z0.000000 I-2.462994 J-1.292046
G02 X66.206228 Y188.209610 Z0.000000 I-3.488145 J-0.803021
G01 X66.177032 Y188.052374 Z0.000000
G01 X66.100395 Y187.934450 Z0.000000
G01 X65.984305 Y187.865990 Z0.000000
G01 X65.825229 Y187.839250 Z0.000000
G01 X61.549562 Y187.839250 Z0.000000
G03 X61.772970 Y187.040957 Z0.000000 I2.361082 J0.230357
G03 X62.226895 Y186.431660 Z0.000000 I1.795824 J0.864151
G03 X62.876410 Y186.038760 Z0.000000 I1.321072 J1.450590
G03 X63.708562 Y185.891910 Z0.000000 I0.832152 J2.284339
G03 X64.084513 Y185.923025 Z0.000000 I0.000000 J2.286819
G03 X64.470562 Y186.018910 Z0.000000 I-0.418011 J2.508066
G03 X64.845516 Y186.185201 Z0.000000 I-0.855655 J2.435205
G03 X65.094979 Y186.357580 Z0.000000 I-0.672537 J1.239978
G01 X65.241075 Y186.438380 Z0.000000
G01 X65.380729 Y186.463410 Z0.000000
G01 X65.490833 Y186.444005 Z0.000000
G01 X65.613562 Y186.378710 Z0.000000
G01 X65.718209 Y186.237289 Z0.000000
G01 X65.751145 Y186.092960 Z0.000000
G01 X65.722782 Y185.967917 Z0.000000
G01 X65.634729 Y185.849540 Z0.000000
G02 X65.263043 Y185.591491 Z0.000000 I-1.515408 J1.786036
G02 X64.745729 Y185.352120 Z0.000000 I-1.815037 J3.243874
G02 X64.198338 Y185.206226 Z0.000000 I-1.197242 J3.392185
G02 X63.708562 Y185.161620 Z0.000000 I-0.489776 J2.666560
G02 X62.887552 Y185.260633 Z0.000000 I-0.000000 J3.453396
G02 X62.195145 Y185.532040 Z0.000000 I0.664012 J2.712939
G02 X61.601114 Y185.985759 Z0.000000 I1.397000 J2.444750
G02 X61.147395 Y186.579790 Z0.000000 I1.991031 J1.991031
G02 X60.875384 Y187.282270 Z0.000000 I2.529754 J1.383463
G02 X60.776979 Y188.103790 Z0.000000 I3.379974 J0.821520
G02 X60.871323 Y188.937827 Z0.000000 I3.733777 J0.000000
G02 X61.126229 Y189.627790 Z0.000000 I2.794860 J-0.640489
G02 X61.560338 Y190.234262 Z0.000000 I2.485095 J-1.320212
G02 X62.110479 Y190.675540 Z0.000000 I1.833901 J-1.722755
G02 X62.773458 Y190.955527 Z0.000000 I1.319009 J-2.198349
G02 X63.549812 Y191.056540 Z0.000000 I0.776354 J-2.932892
G01 X63.549812 Y191.056530 Z0.000000
G00 Z0.000000

(Change tool to Default tool)

G00 Z0.000000
G00 X63.549812 Y190.326280

G01 Z0.000000 F100.0(Penetrate)
G03 X62.799146 Y190.190832 Z0.000000 I-0.000000 J-2.147859 F400.000000
G03 X62.216312 Y189.828860 Z0.000000 I0.607297 J-1.628061
G03 X61.803700 Y189.270902 Z0.000000 I1.330523 J-1.415469
G03 X61.570729 Y188.516530 Z0.000000 I2.256364 J-1.109988
G01 X65.444229 Y188.516530 Z0.000000
G03 X65.239700 Y189.273592 Z0.000000 I-2.442895 J-0.253816
G03 X64.851562 Y189.828860 Z0.000000 I-1.670560 J-0.754449
G03 X64.287972 Y190.190052 Z0.000000 I-1.150635 J-1.175109
G03 X63.549812 Y190.326280 Z0.000000 I-0.738160 J-1.931768
G01 X63.549812 Y190.326280 Z0.000000
G00 Z0.000000

(End cutting path id: path2518)


(Start cutting path id: path2520)
(Change tool to Default tool)

G00 Z0.000000
G00 X68.823289 Y185.214530

G01 Z0.000000 F100.0(Penetrate)
G02 X68.240800 Y185.347088 Z0.000000 I-0.000000 J1.346077 F400.000000
G02 X67.764956 Y185.722530 Z0.000000 I0.599658 J1.249288
G02 X67.476558 Y186.280055 Z0.000000 I1.368347 J1.061175
G02 X67.362789 Y187.045450 Z0.000000 I2.517749 J0.765395
G01 X67.362789 Y193.077950 Z0.000000
G01 X67.395221 Y193.243514 Z0.000000
G01 X67.479206 Y193.363700 Z0.000000
G01 X67.608330 Y193.449431 Z0.000000
G01 X67.764956 Y193.480110 Z0.000000
G01 X67.930526 Y193.447679 Z0.000000
G01 X68.050706 Y193.363700 Z0.000000
G01 X68.134690 Y193.243514 Z0.000000
G01 X68.167122 Y193.077950 Z0.000000
G01 X68.167122 Y187.045450 Z0.000000
G03 X68.219772 Y186.605555 Z0.000000 I1.863997 J0.000000
G03 X68.347039 Y186.304610 Z0.000000 I0.985263 J0.239277
G01 X68.574429 Y186.087790 Z0.000000
G01 X68.823289 Y186.018860 Z0.000000
G01 X69.087872 Y186.018860 Z0.000000
G01 X69.231743 Y185.987462 Z0.000000
G01 X69.341872 Y185.902450 Z0.000000
G01 X69.409638 Y185.786064 Z0.000000
G01 X69.437122 Y185.616700 Z0.000000
G01 X69.401083 Y185.453494 Z0.000000
G01 X69.299539 Y185.320360 Z0.000000
G01 X69.161457 Y185.245140 Z0.000000
G01 X68.960872 Y185.214530 Z0.000000
G01 X68.823289 Y185.214530 Z0.000000
G00 Z0.000000

(End cutting path id: path2520)


(Start cutting path id: path2522)
(Change tool to Default tool)

G00 Z0.000000
G00 X75.874104 Y185.161610

G01 Z0.000000 F100.0(Penetrate)
G02 X75.164914 Y185.245521 Z0.000000 I0.000000 J3.038866 F400.000000
G02 X74.551188 Y185.479110 Z0.000000 I0.599657 J2.498568
G02 X74.019169 Y185.870173 Z0.000000 I1.249896 J2.257832
G02 X73.619854 Y186.368110 Z0.000000 I1.665102 J1.744393
G02 X73.369549 Y186.963825 Z0.000000 I2.032560 J1.204478
G02 X73.281188 Y187.638110 Z0.000000 I2.528575 J0.674285
G01 X73.309613 Y187.807739 Z0.000000
G01 X73.387021 Y187.945030 Z0.000000
G01 X73.517896 Y188.039163 Z0.000000
G01 X73.672771 Y188.072030 Z0.000000
G01 X73.826309 Y188.038307 Z0.000000
G01 X73.947938 Y187.945030 Z0.000000
G01 X74.033573 Y187.806057 Z0.000000
G01 X74.064354 Y187.638110 Z0.000000
G03 X74.124937 Y187.178511 Z0.000000 I1.773623 J0.000000
G03 X74.297188 Y186.770280 Z0.000000 I1.564943 J0.419866
G03 X74.571447 Y186.420611 Z0.000000 I1.488299 J0.884941
G03 X74.932188 Y186.145860 Z0.000000 I1.264051 J1.285468
G03 X75.359583 Y185.981700 Z0.000000 I0.855392 J1.588584
G03 X75.842354 Y185.923610 Z0.000000 I0.482771 J1.977059
G03 X76.603777 Y186.054884 Z0.000000 I0.000000 J2.273852
G03 X77.122938 Y186.378700 Z0.000000 I-0.477498 J1.343639
G03 X77.467871 Y186.889929 Z0.000000 I-1.000473 J1.047013
G03 X77.599187 Y187.574610 Z0.000000 I-1.719303 J0.684681
G03 X77.539289 Y188.066797 Z0.000000 I-2.052107 J-0.000000
G03 X77.376938 Y188.474200 Z0.000000 I-1.558649 J-0.385073
G03 X77.111750 Y188.822448 Z0.000000 I-1.418587 J-0.805151
G03 X76.773688 Y189.077450 Z0.000000 I-1.079418 J-1.079418
G03 X76.376816 Y189.240992 Z0.000000 I-0.790689 J-1.355466
G03 X75.916438 Y189.299700 Z0.000000 I-0.460378 J-1.775745
G01 X75.759811 Y189.330380 Z0.000000
G01 X75.630688 Y189.416110 Z0.000000
G01 X75.545866 Y189.545617 Z0.000000
G01 X75.514271 Y189.712450 Z0.000000
G01 X75.546703 Y189.878014 Z0.000000
G01 X75.630688 Y189.998200 Z0.000000
G01 X75.759811 Y190.083930 Z0.000000
G01 X75.916438 Y190.114610 Z0.000000
G03 X76.264298 Y190.160024 Z0.000000 I0.000000 J1.354979
G03 X76.593771 Y190.294530 Z0.000000 I-0.357966 J1.347612
G03 X76.880660 Y190.516106 Z0.000000 I-0.797287 J1.328812
G03 X77.101771 Y190.791950 Z0.000000 I-1.031197 J1.053130
G03 X77.244459 Y191.122693 Z0.000000 I-1.163532 J0.698119
G03 X77.292271 Y191.469280 Z0.000000 I-1.232303 J0.346587
G03 X77.188185 Y191.985382 Z0.000000 I-1.331570 J-0.000000
G03 X76.900688 Y192.400610 Z0.000000 I-1.129499 J-0.474904
G03 X76.475665 Y192.675328 Z0.000000 I-0.851984 J-0.851984
G03 X75.895271 Y192.781610 Z0.000000 I-0.580394 J-1.531595
G03 X75.266492 Y192.678645 Z0.000000 I-0.000000 J-1.971371
G03 X74.794604 Y192.411200 Z0.000000 I0.455680 J-1.354045
G03 X74.473427 Y191.988790 Z0.000000 I0.810827 J-0.949816
G03 X74.360688 Y191.479860 Z0.000000 I1.092348 J-0.508930
G01 X74.329907 Y191.311923 Z0.000000
G01 X74.244271 Y191.172950 Z0.000000
G01 X74.124494 Y191.088049 Z0.000000
G01 X73.969104 Y191.056530 Z0.000000
G01 X73.812480 Y191.087211 Z0.000000
G01 X73.683354 Y191.172950 Z0.000000
G01 X73.605121 Y191.309942 Z0.000000
G01 X73.577521 Y191.469280 Z0.000000
G02 X73.655118 Y192.028764 Z0.000000 I2.055774 J-0.000000
G02 X73.873854 Y192.517030 Z0.000000 I1.774842 J-0.501975
G02 X74.232736 Y192.935329 Z0.000000 I1.700620 J-1.095956
G02 X74.709938 Y193.257860 Z0.000000 I1.465316 J-1.653722
G02 X75.256978 Y193.459914 Z0.000000 I1.072934 J-2.063308
G02 X75.895271 Y193.533030 Z0.000000 I0.638293 J-2.749534
G02 X76.479939 Y193.461053 Z0.000000 I0.000000 J-2.410622
G02 X76.995938 Y193.257860 Z0.000000 I-0.518159 J-2.072610
G02 X77.450424 Y192.936442 Z0.000000 I-0.952605 J-1.829020
G02 X77.789687 Y192.517030 Z0.000000 I-1.321441 J-1.415835
G02 X78.000326 Y192.030152 Z0.000000 I-1.596707 J-0.979791
G02 X78.075437 Y191.469280 Z0.000000 I-2.056531 J-0.560872
G02 X77.987235 Y190.969850 Z0.000000 I-1.458069 J0.000000
G02 X77.705021 Y190.453280 Z0.000000 I-1.845361 J0.672787
G02 X77.298551 Y190.036002 Z0.000000 I-1.860532 J1.405734
G02 X76.816021 Y189.744200 Z0.000000 I-1.362556 J1.708287
G02 X77.521162 Y189.404748 Z0.000000 I-0.701356 J-2.359038
G02 X78.001354 Y188.918700 Z0.000000 I-1.072068 J-1.539380
G02 X78.304958 Y188.301840 Z0.000000 I-1.766408 J-1.252530
G02 X78.414104 Y187.574610 Z0.000000 I-2.368172 J-0.727230
G02 X78.326427 Y186.921696 Z0.000000 I-2.474892 J0.000000
G02 X78.075437 Y186.336360 Z0.000000 I-2.231159 J0.610232
G02 X77.686679 Y185.849071 Z0.000000 I-1.977373 J1.178824
G02 X77.165271 Y185.468530 Z0.000000 I-1.703470 J1.786572
G02 X76.563197 Y185.242386 Z0.000000 I-1.194198 J2.264832
G02 X75.874104 Y185.161610 Z0.000000 I-0.689093 J2.898911
G01 X75.874104 Y185.161610 Z0.000000
G00 Z0.000000

(End cutting path id: path2522)


(Start cutting path id: path4949)
(Change tool to Default tool)

G00 Z0.000000
G00 X83.138439 Y159.999980

G01 Z0.000000 F100.0(Penetrate)
G01 X124.707660 Y136.000000 Z0.000000 F400.000000
G00 Z0.000000

(End cutting path id: path4949)


(Start cutting path id: path4969)
(Change tool to Default tool)

G00 Z0.000000
G00 X166.276870 Y112.000020

G01 Z0.000000 F100.0(Penetrate)
G01 X138.564060 Y96.000000 Z0.000000 F400.000000
G01 X27.712811 Y96.000000 Z0.000000
G00 Z0.000000

(End cutting path id: path4969)


(Start cutting path id: path2525)
(Change tool to Default tool)

G00 Z0.000000
G00 X28.919312 Y97.489170

G01 Z0.000000 F100.0(Penetrate)
G01 X28.761596 Y97.519037 Z0.000000 F400.000000
G01 X28.622979 Y97.605580 Z0.000000
G01 X28.536431 Y97.744199 Z0.000000
G01 X28.506562 Y97.901920 Z0.000000
G01 X28.506562 Y105.342000 Z0.000000
G01 X28.537242 Y105.498622 Z0.000000
G01 X28.622979 Y105.627750 Z0.000000
G01 X28.763248 Y105.722717 Z0.000000
G01 X28.919312 Y105.754750 Z0.000000
G01 X29.086141 Y105.723154 Z0.000000
G01 X29.215645 Y105.638330 Z0.000000
G01 X29.300466 Y105.508832 Z0.000000
G01 X29.332062 Y105.342000 Z0.000000
G01 X29.332062 Y98.272330 Z0.000000
G01 X33.470145 Y98.272330 Z0.000000
G01 X33.636976 Y98.240737 Z0.000000
G01 X33.766479 Y98.155920 Z0.000000
G01 X33.851377 Y98.036138 Z0.000000
G01 X33.882895 Y97.880750 Z0.000000
G01 X33.852215 Y97.724128 Z0.000000
G01 X33.766479 Y97.595000 Z0.000000
G01 X33.638771 Y97.518377 Z0.000000
G01 X33.470145 Y97.489170 Z0.000000
G01 X28.919312 Y97.489170 Z0.000000
G00 Z0.000000

(End cutting path id: path2525)


(Start cutting path id: path2527)
(Change tool to Default tool)

G00 Z0.000000
G00 X37.563911 Y103.331170

G01 Z0.000000 F100.0(Penetrate)
G02 X38.319069 Y103.232028 Z0.000000 I0.000000 J-2.925565 F400.000000
G02 X38.950328 Y102.960750 Z0.000000 I-0.614548 J-2.300146
G02 X39.479785 Y102.531957 Z0.000000 I-1.225363 J-2.054303
G02 X39.881661 Y101.955330 Z0.000000 I-1.867537 J-1.729923
G02 X40.129087 Y101.287270 Z0.000000 I-2.462901 J-1.292022
G02 X40.220328 Y100.484250 Z0.000000 I-3.488109 J-0.803020
G01 X40.191133 Y100.327013 Z0.000000
G01 X40.114494 Y100.209080 Z0.000000
G01 X39.998404 Y100.140620 Z0.000000
G01 X39.839328 Y100.113880 Z0.000000
G01 X35.563661 Y100.113880 Z0.000000
G03 X35.787068 Y99.315596 Z0.000000 I2.361044 J0.230356
G03 X36.240994 Y98.706300 Z0.000000 I1.795835 J0.864163
G03 X36.890509 Y98.313400 Z0.000000 I1.321072 J1.450590
G03 X37.722661 Y98.166550 Z0.000000 I0.832152 J2.284339
G03 X38.098612 Y98.197665 Z0.000000 I-0.000000 J2.286819
G03 X38.484661 Y98.293550 Z0.000000 I-0.418011 J2.508066
G03 X38.859613 Y98.459835 Z0.000000 I-0.855468 J2.434850
G03 X39.109078 Y98.632220 Z0.000000 I-0.672472 J1.239859
G01 X39.255174 Y98.713020 Z0.000000
G01 X39.394828 Y98.738050 Z0.000000
G01 X39.504932 Y98.718645 Z0.000000
G01 X39.627661 Y98.653350 Z0.000000
G01 X39.732308 Y98.511929 Z0.000000
G01 X39.765244 Y98.367600 Z0.000000
G01 X39.736882 Y98.242567 Z0.000000
G01 X39.648828 Y98.124190 Z0.000000
G02 X39.277140 Y97.866135 Z0.000000 I-1.515325 J1.785879
G02 X38.759828 Y97.626770 Z0.000000 I-1.814830 J3.243505
G02 X38.212437 Y97.480876 Z0.000000 I-1.197242 J3.392185
G02 X37.722661 Y97.436270 Z0.000000 I-0.489776 J2.666560
G02 X36.901651 Y97.535283 Z0.000000 I0.000000 J3.453396
G02 X36.209244 Y97.806690 Z0.000000 I0.664012 J2.712939
G02 X35.615213 Y98.260409 Z0.000000 I1.397000 J2.444750
G02 X35.161494 Y98.854440 Z0.000000 I1.991031 J1.991031
G02 X34.889483 Y99.556920 Z0.000000 I2.529754 J1.383463
G02 X34.791078 Y100.378440 Z0.000000 I3.379974 J0.821520
G02 X34.885422 Y101.212477 Z0.000000 I3.733777 J0.000000
G02 X35.140328 Y101.902440 Z0.000000 I2.794860 J-0.640489
G02 X35.574437 Y102.508912 Z0.000000 I2.485095 J-1.320212
G02 X36.124578 Y102.950190 Z0.000000 I1.833901 J-1.722755
G02 X36.787557 Y103.230177 Z0.000000 I1.319009 J-2.198349
G02 X37.563911 Y103.331190 Z0.000000 I0.776354 J-2.932892
G01 X37.563911 Y103.331170 Z0.000000
G00 Z0.000000

(Change tool to Default tool)

G00 Z0.000000
G00 X37.563911 Y102.600920

G01 Z0.000000 F100.0(Penetrate)
G03 X36.813245 Y102.465472 Z0.000000 I-0.000000 J-2.147859 F400.000000
G03 X36.230411 Y102.103500 Z0.000000 I0.607297 J-1.628061
G03 X35.817797 Y101.545534 Z0.000000 I1.330589 J-1.415511
G03 X35.584828 Y100.791170 Z0.000000 I2.256352 J-1.109982
G01 X39.458328 Y100.791170 Z0.000000
G03 X39.253801 Y101.548223 Z0.000000 I-2.442877 J-0.253817
G03 X38.865661 Y102.103500 Z0.000000 I-1.670624 J-0.754478
G03 X38.302071 Y102.464692 Z0.000000 I-1.150635 J-1.175109
G03 X37.563911 Y102.600920 Z0.000000 I-0.738160 J-1.931768
G01 X37.563911 Y102.600920 Z0.000000
G00 Z0.000000

(End cutting path id: path2527)


(Start cutting path id: path2529)
(Change tool to Default tool)

G00 Z0.000000
G00 X45.890348 Y103.246500

G01 Z0.000000 F100.0(Penetrate)
G01 X46.054064 Y103.103711 Z0.000000 F400.000000
G01 X46.112598 Y102.907830 Z0.000000
G01 X46.105997 Y102.845527 Z0.000000
G01 X46.080848 Y102.759670 Z0.000000
G01 X43.763098 Y97.764330 Z0.000000
G01 X43.583048 Y97.557884 Z0.000000
G01 X43.360931 Y97.489170 Z0.000000
G01 X43.150472 Y97.557221 Z0.000000
G01 X42.979931 Y97.764330 Z0.000000
G01 X40.630431 Y102.749080 Z0.000000
G01 X40.607432 Y102.814646 Z0.000000
G01 X40.598681 Y102.897250 Z0.000000
G01 X40.656593 Y103.083709 Z0.000000
G01 X40.831515 Y103.235920 Z0.000000
G01 X40.908606 Y103.266873 Z0.000000
G01 X41.000848 Y103.278220 Z0.000000
G01 X41.102702 Y103.264341 Z0.000000
G01 X41.191348 Y103.225320 Z0.000000
G01 X41.272173 Y103.159714 Z0.000000
G01 X41.328931 Y103.066570 Z0.000000
G01 X43.360931 Y98.663910 Z0.000000
G01 X45.371765 Y103.066570 Z0.000000
G01 X45.428518 Y103.159706 Z0.000000
G01 X45.509348 Y103.225320 Z0.000000
G01 X45.609551 Y103.272461 Z0.000000
G01 X45.721014 Y103.288820 Z0.000000
G01 X45.813253 Y103.277474 Z0.000000
G01 X45.890348 Y103.246520 Z0.000000
G01 X45.890348 Y103.246500 Z0.000000
G00 Z0.000000

(End cutting path id: path2529)


(Start cutting path id: path2531)
(Change tool to Default tool)

G00 Z0.000000
G00 X49.428819 Y103.331170

G01 Z0.000000 F100.0(Penetrate)
G02 X50.183977 Y103.232028 Z0.000000 I0.000000 J-2.925565 F400.000000
G02 X50.815236 Y102.960750 Z0.000000 I-0.614548 J-2.300146
G02 X51.344693 Y102.531957 Z0.000000 I-1.225363 J-2.054303
G02 X51.746569 Y101.955330 Z0.000000 I-1.867537 J-1.729923
G02 X51.993995 Y101.287270 Z0.000000 I-2.462901 J-1.292022
G02 X52.085236 Y100.484250 Z0.000000 I-3.488109 J-0.803020
G01 X52.056041 Y100.327012 Z0.000000
G01 X51.979403 Y100.209080 Z0.000000
G01 X51.863312 Y100.140620 Z0.000000
G01 X51.704236 Y100.113880 Z0.000000
G01 X47.428569 Y100.113880 Z0.000000
G03 X47.651976 Y99.315597 Z0.000000 I2.361040 J0.230355
G03 X48.105903 Y98.706300 Z0.000000 I1.795835 J0.864164
G03 X48.755417 Y98.313400 Z0.000000 I1.321070 J1.450585
G03 X49.587569 Y98.166550 Z0.000000 I0.832152 J2.284337
G03 X49.963520 Y98.197665 Z0.000000 I-0.000000 J2.286819
G03 X50.349569 Y98.293550 Z0.000000 I-0.418011 J2.508066
G03 X50.724522 Y98.459835 Z0.000000 I-0.855464 J2.434844
G03 X50.973986 Y98.632220 Z0.000000 I-0.672464 J1.239844
G01 X51.120082 Y98.713020 Z0.000000
G01 X51.259736 Y98.738050 Z0.000000
G01 X51.369841 Y98.718645 Z0.000000
G01 X51.492569 Y98.653350 Z0.000000
G01 X51.597216 Y98.511929 Z0.000000
G01 X51.630153 Y98.367600 Z0.000000
G01 X51.601791 Y98.242567 Z0.000000
G01 X51.513736 Y98.124190 Z0.000000
G02 X51.142048 Y97.866135 Z0.000000 I-1.515325 J1.785879
G02 X50.624736 Y97.626770 Z0.000000 I-1.814830 J3.243505
G02 X50.077345 Y97.480876 Z0.000000 I-1.197242 J3.392185
G02 X49.587569 Y97.436270 Z0.000000 I-0.489776 J2.666560
G02 X48.766560 Y97.535283 Z0.000000 I-0.000000 J3.453389
G02 X48.074153 Y97.806690 Z0.000000 I0.664013 J2.712941
G02 X47.480122 Y98.260409 Z0.000000 I1.397000 J2.444750
G02 X47.026403 Y98.854440 Z0.000000 I1.991031 J1.991031
G02 X46.754391 Y99.556920 Z0.000000 I2.529748 J1.383464
G02 X46.655986 Y100.378440 Z0.000000 I3.379964 J0.821520
G02 X46.750330 Y101.212477 Z0.000000 I3.733777 J0.000000
G02 X47.005236 Y101.902440 Z0.000000 I2.794860 J-0.640489
G02 X47.439345 Y102.508912 Z0.000000 I2.485095 J-1.320212
G02 X47.989486 Y102.950190 Z0.000000 I1.833901 J-1.722755
G02 X48.652465 Y103.230177 Z0.000000 I1.319009 J-2.198349
G02 X49.428819 Y103.331190 Z0.000000 I0.776354 J-2.932892
G01 X49.428819 Y103.331170 Z0.000000
G00 Z0.000000

(Change tool to Default tool)

G00 Z0.000000
G00 X49.428819 Y102.600920

G01 Z0.000000 F100.0(Penetrate)
G03 X48.678153 Y102.465472 Z0.000000 I-0.000000 J-2.147859 F400.000000
G03 X48.095319 Y102.103500 Z0.000000 I0.607297 J-1.628061
G03 X47.682706 Y101.545534 Z0.000000 I1.330592 J-1.415513
G03 X47.449736 Y100.791170 Z0.000000 I2.256362 J-1.109987
G01 X51.323236 Y100.791170 Z0.000000
G03 X51.118709 Y101.548223 Z0.000000 I-2.442877 J-0.253817
G03 X50.730569 Y102.103500 Z0.000000 I-1.670624 J-0.754478
G03 X50.166979 Y102.464692 Z0.000000 I-1.150635 J-1.175109
G03 X49.428819 Y102.600920 Z0.000000 I-0.738160 J-1.931768
G01 X49.428819 Y102.600920 Z0.000000
G00 Z0.000000

(End cutting path id: path2531)


(Start cutting path id: path2533)
(Change tool to Default tool)

G00 Z0.000000
G00 X54.702296 Y97.489170

G01 Z0.000000 F100.0(Penetrate)
G02 X54.119807 Y97.621728 Z0.000000 I-0.000000 J1.346077 F400.000000
G02 X53.643963 Y97.997170 Z0.000000 I0.599658 J1.249288
G02 X53.355565 Y98.554695 Z0.000000 I1.368358 J1.061180
G02 X53.241797 Y99.320080 Z0.000000 I2.517705 J0.765385
G01 X53.241797 Y105.352580 Z0.000000
G01 X53.274230 Y105.518152 Z0.000000
G01 X53.358213 Y105.638330 Z0.000000
G01 X53.487339 Y105.724069 Z0.000000
G01 X53.643963 Y105.754750 Z0.000000
G01 X53.809532 Y105.722316 Z0.000000
G01 X53.929713 Y105.638330 Z0.000000
G01 X54.013696 Y105.518152 Z0.000000
G01 X54.046130 Y105.352580 Z0.000000
G01 X54.046130 Y99.320080 Z0.000000
G03 X54.098780 Y98.880194 Z0.000000 I1.863942 J0.000000
G03 X54.226046 Y98.579250 Z0.000000 I0.985275 J0.239281
G01 X54.453436 Y98.362430 Z0.000000
G01 X54.702296 Y98.293500 Z0.000000
G01 X54.966880 Y98.293500 Z0.000000
G01 X55.110750 Y98.262100 Z0.000000
G01 X55.220880 Y98.177080 Z0.000000
G01 X55.288645 Y98.060703 Z0.000000
G01 X55.316130 Y97.891330 Z0.000000
G01 X55.280092 Y97.728134 Z0.000000
G01 X55.178546 Y97.595000 Z0.000000
G01 X55.040464 Y97.519780 Z0.000000
G01 X54.839880 Y97.489170 Z0.000000
G01 X54.702296 Y97.489170 Z0.000000
G00 Z0.000000

(End cutting path id: path2533)


(Start cutting path id: path2535)
(Change tool to Default tool)

G00 Z0.000000
G00 X59.742278 Y97.489170

G01 Z0.000000 F100.0(Penetrate)
G01 X59.584562 Y97.519037 Z0.000000 F400.000000
G01 X59.445945 Y97.605580 Z0.000000
G01 X59.359397 Y97.744199 Z0.000000
G01 X59.329528 Y97.901920 Z0.000000
G01 X59.360208 Y98.058542 Z0.000000
G01 X59.445945 Y98.187670 Z0.000000
G01 X62.652695 Y101.976500 Z0.000000
G03 X62.891448 Y102.279425 Z0.000000 I-1.782365 J1.650336
G03 X63.076028 Y102.611500 Z0.000000 I-1.961030 J1.307353
G03 X63.199614 Y102.978742 Z0.000000 I-1.953206 J0.861716
G03 X63.234778 Y103.278250 Z0.000000 I-1.257933 J0.299508
G03 X63.112271 Y103.970792 Z0.000000 I-2.018748 J0.000000
G03 X62.790278 Y104.495330 Z0.000000 I-1.452284 J-0.530401
G03 X62.300057 Y104.844109 Z0.000000 I-1.049503 J-0.956213
G03 X61.679028 Y104.971580 Z0.000000 I-0.621029 J-1.449067
G03 X61.252396 Y104.911074 Z0.000000 I-0.000000 J-1.534346
G03 X60.874695 Y104.738750 Z0.000000 I0.396021 J-1.368092
G03 X60.556256 Y104.477429 Z0.000000 I0.810748 J-1.312638
G03 X60.303195 Y104.124920 Z0.000000 I1.253031 J-1.166622
G03 X60.147082 Y103.729524 Z0.000000 I1.421743 J-0.789859
G03 X60.091528 Y103.278250 Z0.000000 I1.805102 J-0.451274
G01 X60.058662 Y103.123378 Z0.000000
G01 X59.964528 Y102.992500 Z0.000000
G01 X59.835403 Y102.906762 Z0.000000
G01 X59.678778 Y102.876080 Z0.000000
G01 X59.521064 Y102.905949 Z0.000000
G01 X59.382445 Y102.992500 Z0.000000
G01 X59.296708 Y103.121628 Z0.000000
G01 X59.266028 Y103.278250 Z0.000000
G02 X59.349359 Y103.955157 Z0.000000 I2.790958 J0.000000
G02 X59.583528 Y104.548250 Z0.000000 I2.366794 J-0.591699
G02 X59.963469 Y105.058311 Z0.000000 I2.094345 J-1.163525
G02 X60.451362 Y105.437250 Z0.000000 I1.617421 J-1.578912
G02 X61.025340 Y105.679491 Z0.000000 I1.157669 J-1.941916
G02 X61.679028 Y105.765330 Z0.000000 I0.653688 J-2.446082
G02 X62.343340 Y105.680107 Z0.000000 I0.000000 J-2.631752
G02 X62.896112 Y105.447830 Z0.000000 I-0.532414 J-2.040922
G02 X63.370850 Y105.068699 Z0.000000 I-1.087011 J-1.847919
G02 X63.732195 Y104.558830 Z0.000000 I-1.652374 J-1.554018
G02 X63.956568 Y103.976814 Z0.000000 I-2.067577 J-1.131327
G02 X64.039111 Y103.278250 Z0.000000 I-2.914695 J-0.698564
G02 X63.867535 Y102.484470 Z0.000000 I-1.921961 J-0.000000
G02 X63.213612 Y101.457920 Z0.000000 I-3.931705 J1.782984
G01 X60.504278 Y98.314670 Z0.000000
G01 X63.816861 Y98.314670 Z0.000000
G01 X63.971737 Y98.281803 Z0.000000
G01 X64.102611 Y98.187670 Z0.000000
G01 X64.196745 Y98.056792 Z0.000000
G01 X64.229611 Y97.901920 Z0.000000
G01 X64.199742 Y97.744199 Z0.000000
G01 X64.113195 Y97.605580 Z0.000000
G01 X63.983692 Y97.520763 Z0.000000
G01 X63.816861 Y97.489170 Z0.000000
G01 X59.742278 Y97.489170 Z0.000000
G00 Z0.000000

(End cutting path id: path2535)


(Start cutting path id: path4937)
(Change tool to Default tool)

G00 Z0.000000
G00 X83.138438 Y111.999990

G01 Z0.000000 F100.0(Penetrate)
G01 X83.138438 Y96.000000 Z0.000000 F400.000000
G00 Z0.000000

(End cutting path id: path4937)


(Start cutting path id: path4903)
(Change tool to Default tool)

G00 Z0.000000
G00 X41.569219 Y120.000000

G01 Z0.000000 F100.0(Penetrate)
G01 X69.282039 Y104.000010 Z0.000000 F400.000000
G00 Z0.000000

(End cutting path id: path4903)


(Start cutting path id: path1028)
(Change tool to Default tool)

G00 Z0.000000
G00 X27.712809 Y128.000000

G01 Z0.000000 F100.0(Penetrate)
G01 X193.989710 Y223.999973 Z0.000000 F400.000000
G01 X360.266560 Y128.000000 Z0.000000
G01 X193.989710 Y32.000000 Z0.000000
G01 X27.712809 Y128.000000 Z0.000000
G00 Z0.000000

(End cutting path id: path1028)


(Start cutting path id: path2540)
(Change tool to Default tool)

G00 Z0.000000
G00 X65.541307 Y39.299430

G01 Z0.000000 F100.0(Penetrate)
G02 X66.296465 Y39.200288 Z0.000000 I0.000000 J-2.925565 F400.000000
G02 X66.927724 Y38.929010 Z0.000000 I-0.614548 J-2.300146
G02 X67.457181 Y38.500217 Z0.000000 I-1.225363 J-2.054303
G02 X67.859057 Y37.923590 Z0.000000 I-1.867537 J-1.729923
G02 X68.106483 Y37.255530 Z0.000000 I-2.462901 J-1.292022
G02 X68.197724 Y36.452510 Z0.000000 I-3.488109 J-0.803020
G01 X68.168529 Y36.295273 Z0.000000
G01 X68.091890 Y36.177340 Z0.000000
G01 X67.975783 Y36.108804 Z0.000000
G01 X67.816724 Y36.082040 Z0.000000
G01 X63.541057 Y36.082040 Z0.000000
G03 X63.764464 Y35.283756 Z0.000000 I2.361044 J0.230356
G03 X64.218390 Y34.674460 Z0.000000 I1.795835 J0.864163
G03 X64.867905 Y34.281560 Z0.000000 I1.321072 J1.450590
G03 X65.700057 Y34.134710 Z0.000000 I0.832152 J2.284339
G03 X66.076008 Y34.165825 Z0.000000 I0.000000 J2.286819
G03 X66.462057 Y34.261710 Z0.000000 I-0.418011 J2.508066
G03 X66.837009 Y34.427995 Z0.000000 I-0.855468 J2.434850
G03 X67.086474 Y34.600380 Z0.000000 I-0.672472 J1.239859
G01 X67.232570 Y34.681180 Z0.000000
G01 X67.372224 Y34.706210 Z0.000000
G01 X67.482328 Y34.686805 Z0.000000
G01 X67.605057 Y34.621510 Z0.000000
G01 X67.709704 Y34.480089 Z0.000000
G01 X67.742640 Y34.335760 Z0.000000
G01 X67.714278 Y34.210727 Z0.000000
G01 X67.626224 Y34.092350 Z0.000000
G02 X67.254536 Y33.834295 Z0.000000 I-1.515325 J1.785879
G02 X66.737224 Y33.594930 Z0.000000 I-1.814830 J3.243505
G02 X66.189833 Y33.449036 Z0.000000 I-1.197242 J3.392185
G02 X65.700057 Y33.404430 Z0.000000 I-0.489776 J2.666560
G02 X64.879047 Y33.503443 Z0.000000 I-0.000000 J3.453396
G02 X64.186640 Y33.774850 Z0.000000 I0.664012 J2.712939
G02 X63.592609 Y34.228569 Z0.000000 I1.397000 J2.444750
G02 X63.138890 Y34.822600 Z0.000000 I1.991031 J1.991031
G02 X62.866879 Y35.525080 Z0.000000 I2.529754 J1.383463
G02 X62.768474 Y36.346600 Z0.000000 I3.379974 J0.821520
G02 X62.862818 Y37.180637 Z0.000000 I3.733777 J-0.000000
G02 X63.117724 Y37.870600 Z0.000000 I2.794860 J-0.640489
G02 X63.551833 Y38.477072 Z0.000000 I2.485095 J-1.320212
G02 X64.101974 Y38.918350 Z0.000000 I1.833901 J-1.722755
G02 X64.764953 Y39.198337 Z0.000000 I1.319009 J-2.198349
G02 X65.541307 Y39.299350 Z0.000000 I0.776354 J-2.932892
G01 X65.541307 Y39.299430 Z0.000000
G00 Z0.000000

(Change tool to Default tool)

G00 Z0.000000
G00 X65.541307 Y38.569180

G01 Z0.000000 F100.0(Penetrate)
G03 X64.790641 Y38.433732 Z0.000000 I-0.000000 J-2.147859 F400.000000
G03 X64.207807 Y38.071760 Z0.000000 I0.607297 J-1.628061
G03 X63.795193 Y37.513794 Z0.000000 I1.330589 J-1.415511
G03 X63.562224 Y36.759430 Z0.000000 I2.256352 J-1.109982
G01 X67.435724 Y36.759430 Z0.000000
G03 X67.231197 Y37.516483 Z0.000000 I-2.442877 J-0.253817
G03 X66.843057 Y38.071760 Z0.000000 I-1.670624 J-0.754478
G03 X66.279467 Y38.432952 Z0.000000 I-1.150635 J-1.175109
G03 X65.541307 Y38.569180 Z0.000000 I-0.738160 J-1.931768
G01 X65.541307 Y38.569180 Z0.000000
G00 Z0.000000

(End cutting path id: path2540)


(Start cutting path id: path2542)
(Change tool to Default tool)

G00 Z0.000000
G00 X73.867744 Y39.214760

G01 Z0.000000 F100.0(Penetrate)
G01 X74.031460 Y39.071971 Z0.000000 F400.000000
G01 X74.089994 Y38.876090 Z0.000000
G01 X74.083393 Y38.813787 Z0.000000
G01 X74.058244 Y38.727930 Z0.000000
G01 X71.740494 Y33.732590 Z0.000000
G01 X71.560444 Y33.526144 Z0.000000
G01 X71.338327 Y33.457430 Z0.000000
G01 X71.127868 Y33.525481 Z0.000000
G01 X70.957327 Y33.732590 Z0.000000
G01 X68.607827 Y38.717340 Z0.000000
G01 X68.584828 Y38.782906 Z0.000000
G01 X68.576077 Y38.865510 Z0.000000
G01 X68.633989 Y39.051969 Z0.000000
G01 X68.808911 Y39.204180 Z0.000000
G01 X68.886002 Y39.235133 Z0.000000
G01 X68.978244 Y39.246480 Z0.000000
G01 X69.080098 Y39.232601 Z0.000000
G01 X69.168744 Y39.193580 Z0.000000
G01 X69.249569 Y39.127974 Z0.000000
G01 X69.306327 Y39.034830 Z0.000000
G01 X71.338327 Y34.632170 Z0.000000
G01 X73.349161 Y39.034830 Z0.000000
G01 X73.405914 Y39.127966 Z0.000000
G01 X73.486744 Y39.193580 Z0.000000
G01 X73.586947 Y39.240721 Z0.000000
G01 X73.698411 Y39.257080 Z0.000000
G01 X73.790650 Y39.245734 Z0.000000
G01 X73.867744 Y39.214780 Z0.000000
G01 X73.867744 Y39.214760 Z0.000000
G00 Z0.000000

(End cutting path id: path2542)


(Start cutting path id: path2544)
(Change tool to Default tool)

G00 Z0.000000
G00 X77.406215 Y39.299430

G01 Z0.000000 F100.0(Penetrate)
G02 X78.161373 Y39.200288 Z0.000000 I-0.000000 J-2.925565 F400.000000
G02 X78.792632 Y38.929010 Z0.000000 I-0.614548 J-2.300146
G02 X79.322089 Y38.500217 Z0.000000 I-1.225363 J-2.054303
G02 X79.723965 Y37.923590 Z0.000000 I-1.867537 J-1.729923
G02 X79.971391 Y37.255530 Z0.000000 I-2.462901 J-1.292022
G02 X80.062632 Y36.452510 Z0.000000 I-3.488109 J-0.803020
G01 X80.033437 Y36.295272 Z0.000000
G01 X79.956799 Y36.177340 Z0.000000
G01 X79.840691 Y36.108804 Z0.000000
G01 X79.681632 Y36.082040 Z0.000000
G01 X75.405965 Y36.082040 Z0.000000
G03 X75.629372 Y35.283757 Z0.000000 I2.361040 J0.230355
G03 X76.083299 Y34.674460 Z0.000000 I1.795835 J0.864164
G03 X76.732813 Y34.281560 Z0.000000 I1.321070 J1.450585
G03 X77.564965 Y34.134710 Z0.000000 I0.832152 J2.284337
G03 X77.940916 Y34.165825 Z0.000000 I-0.000000 J2.286819
G03 X78.326965 Y34.261710 Z0.000000 I-0.418011 J2.508066
G03 X78.701918 Y34.427995 Z0.000000 I-0.855464 J2.434844
G03 X78.951382 Y34.600380 Z0.000000 I-0.672464 J1.239844
G01 X79.097478 Y34.681180 Z0.000000
G01 X79.237132 Y34.706210 Z0.000000
G01 X79.347237 Y34.686805 Z0.000000
G01 X79.469965 Y34.621510 Z0.000000
G01 X79.574612 Y34.480089 Z0.000000
G01 X79.607549 Y34.335760 Z0.000000
G01 X79.579187 Y34.210727 Z0.000000
G01 X79.491132 Y34.092350 Z0.000000
G02 X79.119444 Y33.834295 Z0.000000 I-1.515325 J1.785879
G02 X78.602132 Y33.594930 Z0.000000 I-1.814830 J3.243505
G02 X78.054741 Y33.449036 Z0.000000 I-1.197242 J3.392185
G02 X77.564965 Y33.404430 Z0.000000 I-0.489776 J2.666560
G02 X76.743956 Y33.503443 Z0.000000 I-0.000000 J3.453389
G02 X76.051549 Y33.774850 Z0.000000 I0.664013 J2.712941
G02 X75.457518 Y34.228569 Z0.000000 I1.397000 J2.444750
G02 X75.003799 Y34.822600 Z0.000000 I1.991031 J1.991031
G02 X74.731787 Y35.525080 Z0.000000 I2.529748 J1.383464
G02 X74.633382 Y36.346600 Z0.000000 I3.379964 J0.821520
G02 X74.727726 Y37.180637 Z0.000000 I3.733777 J-0.000000
G02 X74.982632 Y37.870600 Z0.000000 I2.794860 J-0.640489
G02 X75.416741 Y38.477072 Z0.000000 I2.485095 J-1.320212
G02 X75.966882 Y38.918350 Z0.000000 I1.833901 J-1.722755
G02 X76.629861 Y39.198337 Z0.000000 I1.319009 J-2.198349
G02 X77.406215 Y39.299350 Z0.000000 I0.776354 J-2.932892
G01 X77.406215 Y39.299430 Z0.000000
G00 Z0.000000

(Change tool to Default tool)

G00 Z0.000000
G00 X77.406215 Y38.569180

G01 Z0.000000 F100.0(Penetrate)
G03 X76.655549 Y38.433732 Z0.000000 I0.000000 J-2.147859 F400.000000
G03 X76.072715 Y38.071760 Z0.000000 I0.607297 J-1.628061
G03 X75.660102 Y37.513794 Z0.000000 I1.330592 J-1.415513
G03 X75.427132 Y36.759430 Z0.000000 I2.256362 J-1.109987
G01 X79.300632 Y36.759430 Z0.000000
G03 X79.096105 Y37.516483 Z0.000000 I-2.442877 J-0.253817
G03 X78.707965 Y38.071760 Z0.000000 I-1.670624 J-0.754478
G03 X78.144375 Y38.432952 Z0.000000 I-1.150635 J-1.175109
G03 X77.406215 Y38.569180 Z0.000000 I-0.738160 J-1.931768
G01 X77.406215 Y38.569180 Z0.000000
G00 Z0.000000

(End cutting path id: path2544)


(Start cutting path id: path2546)
(Change tool to Default tool)

G00 Z0.000000
G00 X82.679692 Y33.457430

G01 Z0.000000 F100.0(Penetrate)
G02 X82.097203 Y33.589988 Z0.000000 I0.000000 J1.346077 F400.000000
G02 X81.621359 Y33.965430 Z0.000000 I0.599658 J1.249288
G02 X81.332961 Y34.522955 Z0.000000 I1.368358 J1.061180
G02 X81.219193 Y35.288340 Z0.000000 I2.517705 J0.765385
G01 X81.219193 Y41.320840 Z0.000000
G01 X81.251626 Y41.486412 Z0.000000
G01 X81.335609 Y41.606590 Z0.000000
G01 X81.464735 Y41.692329 Z0.000000
G01 X81.621359 Y41.723010 Z0.000000
G01 X81.786928 Y41.690576 Z0.000000
G01 X81.907109 Y41.606590 Z0.000000
G01 X81.991092 Y41.486412 Z0.000000
G01 X82.023526 Y41.320840 Z0.000000
G01 X82.023526 Y35.288340 Z0.000000
G03 X82.076176 Y34.848454 Z0.000000 I1.863932 J0.000000
G03 X82.203443 Y34.547510 Z0.000000 I0.985272 J0.239282
G01 X82.430832 Y34.330690 Z0.000000
G01 X82.679692 Y34.261760 Z0.000000
G01 X82.944276 Y34.261760 Z0.000000
G01 X83.088146 Y34.230360 Z0.000000
G01 X83.198276 Y34.145340 Z0.000000
G01 X83.266041 Y34.028963 Z0.000000
G01 X83.293526 Y33.859590 Z0.000000
G01 X83.257488 Y33.696394 Z0.000000
G01 X83.155942 Y33.563260 Z0.000000
G01 X83.017860 Y33.488040 Z0.000000
G01 X82.817276 Y33.457430 Z0.000000
G01 X82.679692 Y33.457430 Z0.000000
G00 Z0.000000

(End cutting path id: path2546)


(Start cutting path id: path2548)
(Change tool to Default tool)

G00 Z0.000000
G00 X89.084924 Y33.457430

G01 Z0.000000 F100.0(Penetrate)
G01 X88.927208 Y33.487297 Z0.000000 F400.000000
G01 X88.788591 Y33.573840 Z0.000000
G01 X88.702043 Y33.712459 Z0.000000
G01 X88.672174 Y33.870180 Z0.000000
G01 X88.672174 Y40.749340 Z0.000000
G01 X87.613841 Y40.378930 Z0.000000
G01 X87.505021 Y40.338687 Z0.000000
G01 X87.402174 Y40.326030 Z0.000000
G01 X87.233549 Y40.355237 Z0.000000
G01 X87.105841 Y40.431860 Z0.000000
G01 X87.021019 Y40.561367 Z0.000000
G01 X86.989424 Y40.728200 Z0.000000
G01 X87.066227 Y40.979048 Z0.000000
G01 X87.254008 Y41.119780 Z0.000000
G01 X88.883841 Y41.680700 Z0.000000
G02 X89.043627 Y41.727215 Z0.000000 I0.685640 J-2.057569
G01 X89.095508 Y41.733600 Z0.000000
G01 X89.252134 Y41.702921 Z0.000000
G01 X89.381258 Y41.617190 Z0.000000
G01 X89.466079 Y41.487683 Z0.000000
G01 X89.497674 Y41.320850 Z0.000000
G01 X89.497674 Y33.870190 Z0.000000
G01 X89.467805 Y33.712469 Z0.000000
G01 X89.381258 Y33.573850 Z0.000000
G01 X89.251755 Y33.489033 Z0.000000
G01 X89.084924 Y33.457440 Z0.000000
G01 X89.084924 Y33.457430 Z0.000000
G00 Z0.000000

(End cutting path id: path2548)


(Start cutting path id: path2538)
(Change tool to Default tool)

G00 Z0.000000
G00 X56.896708 Y33.457430

G01 Z0.000000 F100.0(Penetrate)
G01 X56.738992 Y33.487297 Z0.000000 F400.000000
G01 X56.600375 Y33.573840 Z0.000000
G01 X56.513827 Y33.712459 Z0.000000
G01 X56.483958 Y33.870180 Z0.000000
G01 X56.483958 Y41.310260 Z0.000000
G01 X56.514638 Y41.466882 Z0.000000
G01 X56.600375 Y41.596010 Z0.000000
G01 X56.740644 Y41.690977 Z0.000000
G01 X56.896708 Y41.723010 Z0.000000
G01 X57.063537 Y41.691414 Z0.000000
G01 X57.193041 Y41.606590 Z0.000000
G01 X57.277862 Y41.477092 Z0.000000
G01 X57.309458 Y41.310260 Z0.000000
G01 X57.309458 Y34.240590 Z0.000000
G01 X61.447541 Y34.240590 Z0.000000
G01 X61.614372 Y34.208997 Z0.000000
G01 X61.743875 Y34.124180 Z0.000000
G01 X61.828773 Y34.004398 Z0.000000
G01 X61.860291 Y33.849010 Z0.000000
G01 X61.829611 Y33.692388 Z0.000000
G01 X61.743875 Y33.563260 Z0.000000
G01 X61.616167 Y33.486637 Z0.000000
G01 X61.447541 Y33.457430 Z0.000000
G01 X56.896708 Y33.457430 Z0.000000
G00 Z0.000000

(End cutting path id: path2538)


(Start cutting path id: path4933)
(Change tool to Default tool)

G00 Z0.000000
G00 X138.564060 Y80.000010

G01 Z0.000000 F100.0(Penetrate)
G01 X138.564060 Y64.000000 Z0.000000 F400.000000
G01 X193.989690 Y96.000000 Z0.000000
G01 X193.989690 Y111.999990 Z0.000000
G01 X138.564060 Y144.000000 Z0.000000
G01 X83.138438 Y111.999990 Z0.000000
G01 X138.564060 Y80.000010 Z0.000000
G00 Z0.000000

(End cutting path id: path4933)


(Start cutting path id: path4943)
(Change tool to Default tool)

G00 Z0.000000
G00 X193.989690 Y96.000000

G01 Z0.000000 F100.0(Penetrate)
G01 X249.415310 Y64.000000 Z0.000000 F400.000000
G00 Z0.000000

(End cutting path id: path4943)


(Start cutting path id: path4907)
(Change tool to Default tool)

G00 Z0.000000
G00 X235.558910 Y56.000000

G01 Z0.000000 F100.0(Penetrate)
G01 X207.846090 Y40.000010 Z0.000000 F400.000000
G00 Z0.000000

(End cutting path id: path4907)


(Start cutting path id: path4967)
(Change tool to Default tool)

G00 Z0.000000
G00 X193.989690 Y48.000010

G01 Z0.000000 F100.0(Penetrate)
G01 X166.276880 Y31.999990 Z0.000000 F400.000000
G01 X55.425625 Y31.999990 Z0.000000
G00 Z0.000000

(End cutting path id: path4967)


(Start cutting path id: path4939)
(Change tool to Default tool)

G00 Z0.000000
G00 X193.989690 Y111.999990

G01 Z0.000000 F100.0(Penetrate)
G01 X249.415310 Y80.000010 Z0.000000 F400.000000
G01 X304.840930 Y111.999990 Z0.000000
G01 X249.415310 Y144.000000 Z0.000000
G01 X193.989690 Y111.999990 Z0.000000
G00 Z0.000000

(End cutting path id: path4939)


(Start cutting path id: path4935)
(Change tool to Default tool)

G00 Z0.000000
G00 X193.989690 Y111.999990

G01 Z0.000000 F100.0(Penetrate)
G01 X138.564060 Y80.000010 Z0.000000 F400.000000
G00 Z0.000000

(End cutting path id: path4935)


(Start cutting path id: path4953)
(Change tool to Default tool)

G00 Z0.000000
G00 X193.989690 Y128.000010

G01 Z0.000000 F100.0(Penetrate)
G01 X193.989690 Y111.999990 Z0.000000 F400.000000
G00 Z0.000000

(End cutting path id: path4953)


(Start cutting path id: path4941)
(Change tool to Default tool)

G00 Z0.000000
G00 X249.415310 Y80.000010

G01 Z0.000000 F100.0(Penetrate)
G01 X249.415310 Y64.000000 Z0.000000 F400.000000
G00 Z0.000000

(End cutting path id: path4941)


(Start cutting path id: path4945)
(Change tool to Default tool)

G00 Z0.000000
G00 X304.840930 Y111.999990

G01 Z0.000000 F100.0(Penetrate)
G01 X304.840930 Y96.000000 Z0.000000 F400.000000
G00 Z0.000000

(End cutting path id: path4945)


(Start cutting path id: path4901)
(Change tool to Default tool)

G00 Z0.000000
G00 X318.697350 Y152.000000

G01 Z0.000000 F100.0(Penetrate)
G01 X346.410170 Y136.000010 Z0.000000 F400.000000
G00 Z0.000000

(End cutting path id: path4901)


(Start cutting path id: path4947)
(Change tool to Default tool)

G00 Z0.000000
G00 X304.840930 Y160.000010

G01 Z0.000000 F100.0(Penetrate)
G01 X263.271720 Y136.000000 Z0.000000 F400.000000
G00 Z0.000000

(End cutting path id: path4947)


(Start cutting path id: path4951)
(Change tool to Default tool)

G00 Z0.000000
G00 X249.415310 Y144.000000

G01 Z0.000000 F100.0(Penetrate)
G01 X249.415310 Y160.000010 Z0.000000 F400.000000
G01 X193.989690 Y128.000010 Z0.000000
G01 X138.564060 Y160.000010 Z0.000000
G01 X193.989690 Y191.999990 Z0.000000
G01 X249.415310 Y160.000010 Z0.000000
G00 Z0.000000

(End cutting path id: path4951)


(Start cutting path id: rect4899)
(Change tool to Default tool)

G00 Z0.000000
G00 X257.209530 Y165.500020

G01 Z0.000000 F100.0(Penetrate)
G01 X257.209530 Y165.500020 Z0.000000 F400.000000
G01 X257.209530 Y164.500020 Z0.000000
G01 X257.209530 Y164.500020 Z0.000000
G01 X257.209530 Y164.500020 Z0.000000
G01 X257.209530 Y165.500020 Z0.000000
G01 X257.209530 Y165.500020 Z0.000000
G01 X257.209530 Y165.500020 Z0.000000
G00 Z0.000000

(End cutting path id: rect4899)


(Start cutting path id: path4965)
(Change tool to Default tool)

G00 Z0.000000
G00 X304.840930 Y176.000000

G01 Z0.000000 F100.0(Penetrate)
G01 X249.415310 Y144.000000 Z0.000000 F400.000000
G00 Z0.000000

(End cutting path id: path4965)


(Start cutting path id: path4963)
(Change tool to Default tool)

G00 Z0.000000
G00 X207.846090 Y184.000000

G01 Z0.000000 F100.0(Penetrate)
G01 X249.415310 Y208.000006 Z0.000000 F400.000000
G01 X304.840930 Y176.000000 Z0.000000
G01 X304.840930 Y160.000010 Z0.000000
G00 Z0.000000

(End cutting path id: path4963)


(Start cutting path id: path1038)
(Change tool to Default tool)

G00 Z0.000000
G00 X387.736600 Y239.859010

G01 Z0.000000 F100.0(Penetrate)
G01 X470.875050 Y287.859005 Z0.000000 F400.000000
G01 X554.013480 Y239.859010 Z0.000000
G01 X470.875050 Y191.859010 Z0.000000
G01 X387.736600 Y239.859010 Z0.000000
G00 Z0.000000

(End cutting path id: path1038)


(Start cutting path id: path1077)
(Change tool to Default tool)

G00 Z0.000000
G00 X387.736620 Y239.859019

G01 Z0.000000 F100.0(Penetrate)
G01 X387.736620 Y207.859015 Z0.000000 F400.000000
G01 X470.875050 Y159.859030 Z0.000000
G01 X470.875050 Y191.859000 Z0.000000
G00 Z0.000000

(End cutting path id: path1077)


(Start cutting path id: path1085)
(Change tool to Default tool)

G00 Z0.000000
G00 X498.587860 Y207.859015

G01 Z0.000000 F100.0(Penetrate)
G01 X498.587860 Y175.859010 Z0.000000 F400.000000
G00 Z0.000000

(End cutting path id: path1085)


(Start cutting path id: path1087)
(Change tool to Default tool)

G00 Z0.000000
G00 X526.300680 Y223.859005

G01 Z0.000000 F100.0(Penetrate)
G01 X526.300680 Y191.859000 Z0.000000 F400.000000
G00 Z0.000000

(End cutting path id: path1087)


(Start cutting path id: path1079)
(Change tool to Default tool)

G00 Z0.000000
G00 X554.013480 Y239.859019

G01 Z0.000000 F100.0(Penetrate)
G01 X554.013480 Y207.859015 Z0.000000 F400.000000
G01 X470.875050 Y159.859030 Z0.000000
G00 Z0.000000

(End cutting path id: path1079)


(Start cutting path id: path1083)
(Change tool to Default tool)

G00 Z0.000000
G00 X443.162240 Y207.859015

G01 Z0.000000 F100.0(Penetrate)
G01 X443.162240 Y175.859010 Z0.000000 F400.000000
G00 Z0.000000

(End cutting path id: path1083)


(Start cutting path id: path1081)
(Change tool to Default tool)

G00 Z0.000000
G00 X415.449420 Y223.859004

G01 Z0.000000 F100.0(Penetrate)
G01 X415.449420 Y191.859000 Z0.000000 F400.000000
G00 Z0.000000

(End cutting path id: path1081)


(Start cutting path id: path1040)
(Change tool to Default tool)

G00 Z0.000000
G00 X415.449420 Y255.859011

G01 Z0.000000 F100.0(Penetrate)
G01 X498.587850 Y207.859015 Z0.000000 F400.000000
G00 Z0.000000

(End cutting path id: path1040)


(Start cutting path id: path1044)
(Change tool to Default tool)

G00 Z0.000000
G00 X526.300670 Y255.859011

G01 Z0.000000 F100.0(Penetrate)
G01 X443.162240 Y207.859005 Z0.000000 F400.000000
G00 Z0.000000

(End cutting path id: path1044)


(Start cutting path id: path1046)
(Change tool to Default tool)

G00 Z0.000000
G00 X443.162230 Y271.859011

G01 Z0.000000 F100.0(Penetrate)
G01 X526.300660 Y223.859010 Z0.000000 F400.000000
G00 Z0.000000

(End cutting path id: path1046)


(Start cutting path id: path1042)
(Change tool to Default tool)

G00 Z0.000000
G00 X498.587850 Y271.859011

G01 Z0.000000 F100.0(Penetrate)
G01 X415.449420 Y223.859010 Z0.000000 F400.000000
G00 Z0.000000

(End cutting path id: path1042)


(Start cutting path id: path1071)
(Change tool to Default tool)

G00 Z0.000000
G00 X470.875050 Y287.858993

G01 Z0.000000 F100.0(Penetrate)
G01 X470.875050 Y31.859020 Z0.000000 F400.000000
G00 Z0.000000

(End cutting path id: path1071)


(Start cutting path id: path4839)
(Change tool to Default tool)

G00 Z0.000000
G00 X415.449430 Y95.859020

G01 Z0.000000 F100.0(Penetrate)
G01 X498.587860 Y47.859020 Z0.000000 F400.000000
G00 Z0.000000

(End cutting path id: path4839)


(Start cutting path id: path4837)
(Change tool to Default tool)

G00 Z0.000000
G00 X526.300660 Y95.859030

G01 Z0.000000 F100.0(Penetrate)
G01 X443.162230 Y47.859020 Z0.000000 F400.000000
G00 Z0.000000

(End cutting path id: path4837)


(Start cutting path id: path4833)
(Change tool to Default tool)

G00 Z0.000000
G00 X443.162240 Y111.859020

G01 Z0.000000 F100.0(Penetrate)
G01 X526.300670 Y63.859020 Z0.000000 F400.000000
G00 Z0.000000

(End cutting path id: path4833)


(Start cutting path id: path4835)
(Change tool to Default tool)

G00 Z0.000000
G00 X498.587860 Y111.859020

G01 Z0.000000 F100.0(Penetrate)
G01 X415.449430 Y63.859020 Z0.000000 F400.000000
G00 Z0.000000

(End cutting path id: path4835)


(Start cutting path id: path4831)
(Change tool to Default tool)

G00 Z0.000000
G00 X387.736600 Y79.859020

G01 Z0.000000 F100.0(Penetrate)
G01 X470.875050 Y127.859010 Z0.000000 F400.000000
G01 X554.013480 Y79.859020 Z0.000000
G01 X470.875050 Y31.859020 Z0.000000
G01 X387.736600 Y79.859020 Z0.000000
G00 Z0.000000

(End cutting path id: path4831)


(Start cutting path id: path967)
(Change tool to Default tool)

G00 Z0.000000
G00 X581.459990 Y208.293895

G01 Z0.000000 F100.0(Penetrate)
G01 X664.591520 Y160.015980 Z0.000000 F400.000000
G00 Z0.000000

(End cutting path id: path967)


(Start cutting path id: path969)
(Change tool to Default tool)

G00 Z0.000000
G00 X664.591520 Y128.289900

G01 Z0.000000 F100.0(Penetrate)
G01 X581.974560 Y175.996810 Z0.000000 F400.000000
G00 Z0.000000

(End cutting path id: path969)


(Start cutting path id: path963)
(Change tool to Default tool)

G00 Z0.000000
G00 X609.172820 Y223.939310

G01 Z0.000000 F100.0(Penetrate)
G01 X609.372020 Y128.054310 Z0.000000 F400.000000
G00 Z0.000000

(End cutting path id: path963)


(Start cutting path id: path1007)
(Change tool to Default tool)

G00 Z0.000000
G00 X664.690590 Y96.240690

G01 Z0.000000 F100.0(Penetrate)
G01 X775.547330 Y160.237520 Z0.000000 F400.000000
G00 Z0.000000

(End cutting path id: path1007)


(Start cutting path id: path951)
(Change tool to Default tool)

G00 Z0.000000
G00 X748.251440 Y111.996810

G01 Z0.000000 F100.0(Penetrate)
G01 X831.389870 Y63.996810 Z0.000000 F400.000000
G00 Z0.000000

(End cutting path id: path951)


(Start cutting path id: path949)
(Change tool to Default tool)

G00 Z0.000000
G00 X831.389880 Y95.996810

G01 Z0.000000 F100.0(Penetrate)
G01 X748.251450 Y47.996810 Z0.000000 F400.000000
G00 Z0.000000

(End cutting path id: path949)


(Start cutting path id: path959)
(Change tool to Default tool)

G00 Z0.000000
G00 X776.229840 Y32.150150

G01 Z0.000000 F100.0(Penetrate)
G01 X775.964250 Y159.996810 Z0.000000 F400.000000
G00 Z0.000000

(End cutting path id: path959)


(Start cutting path id: path947)
(Change tool to Default tool)

G00 Z0.000000
G00 X803.677060 Y111.996810

G01 Z0.000000 F100.0(Penetrate)
G01 X720.538630 Y63.996810 Z0.000000 F400.000000
G00 Z0.000000

(End cutting path id: path947)


(Start cutting path id: path957)
(Change tool to Default tool)

G00 Z0.000000
G00 X693.091400 Y80.150140

G01 Z0.000000 F100.0(Penetrate)
G01 X692.825810 Y207.996815 Z0.000000 F400.000000
G00 Z0.000000

(End cutting path id: path957)


(Start cutting path id: path923)
(Change tool to Default tool)

G00 Z0.000000
G00 X693.041600 Y207.872235

G01 Z0.000000 F100.0(Penetrate)
G01 X581.773430 Y272.112940 Z0.000000 F400.000000
G00 Z0.000000

(End cutting path id: path923)


(Start cutting path id: path1005)
(Change tool to Default tool)

G00 Z0.000000
G00 X582.234660 Y240.153320

G01 Z0.000000 F100.0(Penetrate)
G01 X693.091400 Y304.150147 Z0.000000 F400.000000
G00 Z0.000000

(End cutting path id: path1005)


(Start cutting path id: path929)
(Change tool to Default tool)

G00 Z0.000000
G00 X693.091400 Y304.150147

G01 Z0.000000 F100.0(Penetrate)
G01 X692.825810 Y431.996810 Z0.000000 F400.000000
G00 Z0.000000

(End cutting path id: path929)


(Start cutting path id: path931)
(Change tool to Default tool)

G00 Z0.000000
G00 X692.825810 Y431.996810

G01 Z0.000000 F100.0(Penetrate)
G01 X775.964260 Y479.996810 Z0.000000 F400.000000
G01 X859.102690 Y431.996810 Z0.000000
G01 X775.964260 Y383.996811 Z0.000000
G01 X692.825810 Y431.996810 Z0.000000
G00 Z0.000000

(End cutting path id: path931)


(Start cutting path id: path933)
(Change tool to Default tool)

G00 Z0.000000
G00 X720.538630 Y447.996810

G01 Z0.000000 F100.0(Penetrate)
G01 X803.677060 Y399.996810 Z0.000000 F400.000000
G00 Z0.000000

(End cutting path id: path933)


(Start cutting path id: path840)
(Change tool to Default tool)

G00 Z0.000000
G00 X776.379920 Y351.763177

G01 Z0.000000 F100.0(Penetrate)
G01 X858.788020 Y303.820668 Z0.000000 F400.000000
G01 X859.103400 Y207.935675 Z0.000000
G01 X775.948350 Y159.993180 Z0.000000
G01 X692.710330 Y207.935675 Z0.000000
G01 X692.826510 Y303.820668 Z0.000000
G01 X776.379920 Y351.763177 Z0.000000
G00 Z0.000000

(End cutting path id: path840)


(Start cutting path id: path921)
(Change tool to Default tool)

G00 Z0.000000
G00 X776.381170 Y351.756102

G01 Z0.000000 F100.0(Penetrate)
G01 X665.113000 Y415.996810 Z0.000000 F400.000000
G00 Z0.000000

(End cutting path id: path921)


(Start cutting path id: path911)
(Change tool to Default tool)

G00 Z0.000000
G00 X637.397520 Y399.995270

G01 Z0.000000 F100.0(Penetrate)
G01 X637.815150 Y303.757233 Z0.000000 F400.000000
G00 Z0.000000

(End cutting path id: path911)


(Start cutting path id: path999)
(Change tool to Default tool)

G00 Z0.000000
G00 X693.240780 Y303.757233

G01 Z0.000000 F100.0(Penetrate)
G01 X581.972610 Y367.997939 Z0.000000 F400.000000
G00 Z0.000000

(End cutting path id: path999)


(Start cutting path id: path909)
(Change tool to Default tool)

G00 Z0.000000
G00 X581.972610 Y367.995685

G01 Z0.000000 F100.0(Penetrate)
G01 X665.109980 Y415.998550 Z0.000000 F400.000000
G01 X665.109980 Y319.995071 Z0.000000
G01 X582.323130 Y271.795560 Z0.000000
G01 X581.972610 Y367.995685 Z0.000000
G00 Z0.000000

(End cutting path id: path909)


(Start cutting path id: path1069)
(Change tool to Default tool)

G00 Z0.000000
G00 X554.013480 Y367.859000

G01 Z0.000000 F100.0(Penetrate)
G01 X554.013480 Y79.859030 Z0.000000 F400.000000
G00 Z0.000000

(End cutting path id: path1069)


(Start cutting path id: path943)
(Change tool to Default tool)

G00 Z0.000000
G00 X692.825810 Y79.996810

G01 Z0.000000 F100.0(Penetrate)
G01 X775.964260 Y127.996810 Z0.000000 F400.000000
G01 X859.102690 Y79.996810 Z0.000000
G01 X775.964260 Y31.996810 Z0.000000
G01 X692.825810 Y79.996810 Z0.000000
G00 Z0.000000

(End cutting path id: path943)


(Start cutting path id: path945)
(Change tool to Default tool)

G00 Z0.000000
G00 X720.538630 Y95.996810

G01 Z0.000000 F100.0(Penetrate)
G01 X803.677060 Y47.996810 Z0.000000 F400.000000
G00 Z0.000000

(End cutting path id: path945)


(Start cutting path id: path953)
(Change tool to Default tool)

G00 Z0.000000
G00 X859.102690 Y79.996810

G01 Z0.000000 F100.0(Penetrate)
G01 X858.837100 Y207.843475 Z0.000000 F400.000000
G00 Z0.000000

(End cutting path id: path953)


(Start cutting path id: path887)
(Change tool to Default tool)

G00 Z0.000000
G00 X859.097200 Y207.999995

G01 Z0.000000 F100.0(Penetrate)
G01 X969.953940 Y271.996810 Z0.000000 F400.000000
G00 Z0.000000

(End cutting path id: path887)


(Start cutting path id: path903)
(Change tool to Default tool)

G00 Z0.000000
G00 X969.947020 Y303.992818

G01 Z0.000000 F100.0(Penetrate)
G01 X887.330060 Y351.699730 Z0.000000 F400.000000
G00 Z0.000000

(End cutting path id: path903)


(Start cutting path id: path901)
(Change tool to Default tool)

G00 Z0.000000
G00 X886.815490 Y383.996811

G01 Z0.000000 F100.0(Penetrate)
G01 X969.947020 Y335.718897 Z0.000000 F400.000000
G00 Z0.000000

(End cutting path id: path901)


(Start cutting path id: path899)
(Change tool to Default tool)

G00 Z0.000000
G00 X942.234560 Y383.993019

G01 Z0.000000 F100.0(Penetrate)
G01 X942.433760 Y288.108020 Z0.000000 F400.000000
G00 Z0.000000

(End cutting path id: path899)


(Start cutting path id: path995)
(Change tool to Default tool)

G00 Z0.000000
G00 X970.370860 Y239.756100

G01 Z0.000000 F100.0(Penetrate)
G01 X859.102690 Y303.996812 Z0.000000 F400.000000
G00 Z0.000000

(End cutting path id: path995)


(Start cutting path id: path905)
(Change tool to Default tool)

G00 Z0.000000
G00 X859.097190 Y303.999991

G01 Z0.000000 F100.0(Penetrate)
G01 X969.406190 Y367.680563 Z0.000000 F400.000000
G00 Z0.000000

(End cutting path id: path905)


(Start cutting path id: path897)
(Change tool to Default tool)

G00 Z0.000000
G00 X914.528320 Y399.642230

G01 Z0.000000 F100.0(Penetrate)
G01 X914.727520 Y303.757231 Z0.000000 F400.000000
G00 Z0.000000

(End cutting path id: path897)


(Start cutting path id: path927)
(Change tool to Default tool)

G00 Z0.000000
G00 X859.368280 Y304.150147

G01 Z0.000000 F100.0(Penetrate)
G01 X859.102690 Y431.996810 Z0.000000 F400.000000
G00 Z0.000000

(End cutting path id: path927)


(Start cutting path id: path937)
(Change tool to Default tool)

G00 Z0.000000
G00 X831.389880 Y447.996810

G01 Z0.000000 F100.0(Penetrate)
G01 X748.251450 Y399.996810 Z0.000000 F400.000000
G00 Z0.000000

(End cutting path id: path937)


(Start cutting path id: path889)
(Change tool to Default tool)

G00 Z0.000000
G00 X775.958760 Y351.999987

G01 Z0.000000 F100.0(Penetrate)
G01 X886.815500 Y415.996810 Z0.000000 F400.000000
G00 Z0.000000

(End cutting path id: path889)


(Start cutting path id: path893)
(Change tool to Default tool)

G00 Z0.000000
G00 X887.462850 Y415.623060

G01 Z0.000000 F100.0(Penetrate)
G01 X969.406190 Y367.680563 Z0.000000 F400.000000
G01 X969.953930 Y271.996810 Z0.000000
G01 X887.263670 Y319.738065 Z0.000000
G01 X887.462850 Y415.623060 Z0.000000
G00 Z0.000000

(End cutting path id: path893)


(Start cutting path id: path935)
(Change tool to Default tool)

G00 Z0.000000
G00 X803.677060 Y463.996810

G01 Z0.000000 F100.0(Penetrate)
G01 X720.538630 Y415.996810 Z0.000000 F400.000000
G00 Z0.000000

(End cutting path id: path935)


(Start cutting path id: path939)
(Change tool to Default tool)

G00 Z0.000000
G00 X748.251440 Y463.996810

G01 Z0.000000 F100.0(Penetrate)
G01 X831.389870 Y415.996810 Z0.000000 F400.000000
G00 Z0.000000

(End cutting path id: path939)


(Start cutting path id: path854)
(Change tool to Default tool)

G00 Z0.000000
G00 X803.672270 Y335.999576

G01 Z0.000000 F100.0(Penetrate)
G01 X720.180460 Y288.203600 Z0.000000 F400.000000
G00 Z0.000000

(End cutting path id: path854)


(Start cutting path id: path850)
(Change tool to Default tool)

G00 Z0.000000
G00 X720.539340 Y288.002770

G01 Z0.000000 F100.0(Penetrate)
G01 X720.622340 Y191.954840 Z0.000000 F400.000000
G00 Z0.000000

(End cutting path id: path850)


(Start cutting path id: path879)
(Change tool to Default tool)

G00 Z0.000000
G00 X692.822440 Y240.000400

G01 Z0.000000 F100.0(Penetrate)
G01 X775.606810 Y192.204820 Z0.000000 F400.000000
G00 Z0.000000

(End cutting path id: path879)


(Start cutting path id: path848)
(Change tool to Default tool)

G00 Z0.000000
G00 X776.180740 Y255.878170

G01 Z0.000000 F100.0(Penetrate)
G01 X775.959810 Y159.993180 Z0.000000 F400.000000
G00 Z0.000000

(End cutting path id: path848)


(Start cutting path id: path881)
(Change tool to Default tool)

G00 Z0.000000
G00 X803.428790 Y271.859010

G01 Z0.000000 F100.0(Penetrate)
G01 X803.478590 Y175.830260 Z0.000000 F400.000000
G00 Z0.000000

(End cutting path id: path881)


(Start cutting path id: path997)
(Change tool to Default tool)

G00 Z0.000000
G00 X886.813550 Y192.273600

G01 Z0.000000 F100.0(Penetrate)
G01 X775.545380 Y256.514310 Z0.000000 F400.000000
G00 Z0.000000

(End cutting path id: path997)


(Start cutting path id: path852)
(Change tool to Default tool)

G00 Z0.000000
G00 X748.252140 Y272.002760

G01 Z0.000000 F100.0(Penetrate)
G01 X748.301940 Y175.974010 Z0.000000 F400.000000
G00 Z0.000000

(End cutting path id: path852)


(Start cutting path id: path1003)
(Change tool to Default tool)

G00 Z0.000000
G00 X665.113000 Y191.996810

G01 Z0.000000 F100.0(Penetrate)
G01 X775.422000 Y255.677380 Z0.000000 F400.000000
G00 Z0.000000

(End cutting path id: path1003)


(Start cutting path id: path883)
(Change tool to Default tool)

G00 Z0.000000
G00 X831.384730 Y288.006140

G01 Z0.000000 F100.0(Penetrate)
G01 X831.434530 Y191.977390 Z0.000000 F400.000000
G00 Z0.000000

(End cutting path id: path883)


(Start cutting path id: path983)
(Change tool to Default tool)

G00 Z0.000000
G00 X886.813550 Y192.273600

G01 Z0.000000 F100.0(Penetrate)
G01 X969.950920 Y240.276470 Z0.000000 F400.000000
G01 X969.950920 Y144.272980 Z0.000000
G01 X887.164070 Y96.073470 Z0.000000
G01 X886.813550 Y192.273600 Z0.000000
G00 Z0.000000

(End cutting path id: path983)


(Start cutting path id: path989)
(Change tool to Default tool)

G00 Z0.000000
G00 X914.526010 Y208.273395

G01 Z0.000000 F100.0(Penetrate)
G01 X914.943640 Y112.035350 Z0.000000 F400.000000
G00 Z0.000000

(End cutting path id: path989)


(Start cutting path id: path1001)
(Change tool to Default tool)

G00 Z0.000000
G00 X886.815500 Y95.996810

G01 Z0.000000 F100.0(Penetrate)
G01 X775.547330 Y160.237520 Z0.000000 F400.000000
G00 Z0.000000

(End cutting path id: path1001)


(Start cutting path id: path875)
(Change tool to Default tool)

G00 Z0.000000
G00 X859.285980 Y239.897340

G01 Z0.000000 F100.0(Penetrate)
G01 X775.794170 Y192.101360 Z0.000000 F400.000000
G00 Z0.000000

(End cutting path id: path875)


(Start cutting path id: path877)
(Change tool to Default tool)

G00 Z0.000000
G00 X692.577540 Y271.859010

G01 Z0.000000 F100.0(Penetrate)
G01 X775.361910 Y224.063430 Z0.000000 F400.000000
G00 Z0.000000

(End cutting path id: path877)


(Start cutting path id: path873)
(Change tool to Default tool)

G00 Z0.000000
G00 X859.097190 Y272.006350

G01 Z0.000000 F100.0(Penetrate)
G01 X775.605380 Y224.210370 Z0.000000 F400.000000
G00 Z0.000000

(End cutting path id: path873)


(Start cutting path id: path856)
(Change tool to Default tool)

G00 Z0.000000
G00 X720.887900 Y319.801507

G01 Z0.000000 F100.0(Penetrate)
G01 X803.672270 Y272.005930 Z0.000000 F400.000000
G00 Z0.000000

(End cutting path id: path856)


(Start cutting path id: path871)
(Change tool to Default tool)

G00 Z0.000000
G00 X831.739160 Y319.801507

G01 Z0.000000 F100.0(Penetrate)
G01 X748.247350 Y272.005530 Z0.000000 F400.000000
G00 Z0.000000

(End cutting path id: path871)


(Start cutting path id: path907)
(Change tool to Default tool)

G00 Z0.000000
G00 X693.240780 Y303.757233

G01 Z0.000000 F100.0(Penetrate)
G01 X581.972610 Y367.997939 Z0.000000 F400.000000
G00 Z0.000000

(End cutting path id: path907)


(Start cutting path id: path915)
(Change tool to Default tool)

G00 Z0.000000
G00 X609.685070 Y383.995478

G01 Z0.000000 F100.0(Penetrate)
G01 X610.102700 Y287.757440 Z0.000000 F400.000000
G00 Z0.000000

(End cutting path id: path915)


(Start cutting path id: path961)
(Change tool to Default tool)

G00 Z0.000000
G00 X582.107350 Y239.920140

G01 Z0.000000 F100.0(Penetrate)
G01 X664.050690 Y191.977640 Z0.000000 F400.000000
G01 X664.598430 Y96.293890 Z0.000000
G01 X581.908170 Y144.035140 Z0.000000
G01 X582.107350 Y239.920140 Z0.000000
G00 Z0.000000

(End cutting path id: path961)


(Start cutting path id: path965)
(Change tool to Default tool)

G00 Z0.000000
G00 X636.879060 Y208.290105

G01 Z0.000000 F100.0(Penetrate)
G01 X637.078260 Y112.405100 Z0.000000 F400.000000
G00 Z0.000000

(End cutting path id: path965)


(Start cutting path id: path919)
(Change tool to Default tool)

G00 Z0.000000
G00 X665.109980 Y351.998552

G01 Z0.000000 F100.0(Penetrate)
G01 X582.552500 Y304.056055 Z0.000000 F400.000000
G00 Z0.000000

(End cutting path id: path919)


(Start cutting path id: path1099)
(Change tool to Default tool)

G00 Z0.000000
G00 X526.300680 Y383.859015

G01 Z0.000000 F100.0(Penetrate)
G01 X526.300680 Y351.859000 Z0.000000 F400.000000
G00 Z0.000000

(End cutting path id: path1099)


(Start cutting path id: path1097)
(Change tool to Default tool)

G00 Z0.000000
G00 X498.587860 Y367.859010

G01 Z0.000000 F100.0(Penetrate)
G01 X498.587860 Y335.859005 Z0.000000 F400.000000
G00 Z0.000000

(End cutting path id: path1097)


(Start cutting path id: path1073)
(Change tool to Default tool)

G00 Z0.000000
G00 X470.875050 Y319.859022

G01 Z0.000000 F100.0(Penetrate)
G01 X470.875050 Y31.859020 Z0.000000 F400.000000
G00 Z0.000000

(End cutting path id: path1073)


(Start cutting path id: path1095)
(Change tool to Default tool)

G00 Z0.000000
G00 X443.162240 Y367.859010

G01 Z0.000000 F100.0(Penetrate)
G01 X443.162240 Y335.859005 Z0.000000 F400.000000
G00 Z0.000000

(End cutting path id: path1095)


(Start cutting path id: path1093)
(Change tool to Default tool)

G00 Z0.000000
G00 X415.449420 Y383.859005

G01 Z0.000000 F100.0(Penetrate)
G01 X415.449420 Y351.858999 Z0.000000 F400.000000
G00 Z0.000000

(End cutting path id: path1093)


(Start cutting path id: path1075)
(Change tool to Default tool)

G00 Z0.000000
G00 X387.736610 Y367.859000

G01 Z0.000000 F100.0(Penetrate)
G01 X387.736610 Y79.859020 Z0.000000 F400.000000
G00 Z0.000000

(End cutting path id: path1075)


(Start cutting path id: path1089)
(Change tool to Default tool)

G00 Z0.000000
G00 X387.736620 Y399.859030

