%
(Header)
(Generated by gcodetools from Inkscape.)
(Using default header. To add your own header create file "header" in the output dir.)
M3
(Header end.)
G21 (All units in mm)

(Start cutting path id: path5035)
(Change tool to Default tool)

G00 Z0.000000
G00 X193.989690 Y223.999995

G01 Z0.000000 F100.0(Penetrate)
G01 X193.989690 Y303.999992 Z0.000000 F400.000000
G01 X221.702500 Y288.000003 Z0.000000
G01 X221.702500 Y303.999992 Z0.000000
G01 X193.989690 Y320.000008 Z0.000000
G01 X166.276880 Y303.999992 Z0.000000
G01 X166.276880 Y288.000003 Z0.000000
G01 X193.989690 Y303.999992 Z0.000000
G00 Z0.000000

(End cutting path id: path5035)


(Start cutting path id: path4963)
(Change tool to Default tool)

G00 Z0.000000
G00 X207.846090 Y184.000000

G01 Z0.000000 F100.0(Penetrate)
G01 X249.415310 Y208.000006 Z0.000000 F400.000000
G01 X304.840930 Y176.000000 Z0.000000
G01 X304.840930 Y160.000010 Z0.000000
G00 Z0.000000

(End cutting path id: path4963)


(Start cutting path id: path4947)
(Change tool to Default tool)

G00 Z0.000000
G00 X304.840930 Y160.000010

G01 Z0.000000 F100.0(Penetrate)
G01 X263.271720 Y136.000000 Z0.000000 F400.000000
G00 Z0.000000

(End cutting path id: path4947)


(Start cutting path id: path4951)
(Change tool to Default tool)

G00 Z0.000000
G00 X249.415310 Y144.000000

G01 Z0.000000 F100.0(Penetrate)
G01 X249.415310 Y160.000010 Z0.000000 F400.000000
G01 X193.989690 Y128.000010 Z0.000000
G01 X138.564060 Y160.000010 Z0.000000
G01 X193.989690 Y191.999990 Z0.000000
G01 X249.415310 Y160.000010 Z0.000000
G00 Z0.000000

(End cutting path id: path4951)


(Start cutting path id: path4965)
(Change tool to Default tool)

G00 Z0.000000
G00 X304.840930 Y176.000000

G01 Z0.000000 F100.0(Penetrate)
G01 X249.415310 Y144.000000 Z0.000000 F400.000000
G00 Z0.000000

(End cutting path id: path4965)


(Start cutting path id: path4953)
(Change tool to Default tool)

G00 Z0.000000
G00 X193.989690 Y128.000010

G01 Z0.000000 F100.0(Penetrate)
G01 X193.989690 Y111.999990 Z0.000000 F400.000000
G00 Z0.000000

(End cutting path id: path4953)


(Start cutting path id: path4939)
(Change tool to Default tool)

G00 Z0.000000
G00 X193.989690 Y111.999990

G01 Z0.000000 F100.0(Penetrate)
G01 X249.415310 Y80.000010 Z0.000000 F400.000000
G01 X304.840930 Y111.999990 Z0.000000
G01 X249.415310 Y144.000000 Z0.000000
G01 X193.989690 Y111.999990 Z0.000000
G00 Z0.000000

(End cutting path id: path4939)


(Start cutting path id: path4935)
(Change tool to Default tool)

G00 Z0.000000
G00 X193.989690 Y111.999990

G01 Z0.000000 F100.0(Penetrate)
G01 X138.564060 Y80.000010 Z0.000000 F400.000000
G00 Z0.000000

(End cutting path id: path4935)


(Start cutting path id: path4933)
(Change tool to Default tool)

G00 Z0.000000
G00 X138.564060 Y80.000010

G01 Z0.000000 F100.0(Penetrate)
G01 X138.564060 Y64.000000 Z0.000000 F400.000000
G01 X193.989690 Y96.000000 Z0.000000
G01 X193.989690 Y111.999990 Z0.000000
G01 X138.564060 Y144.000000 Z0.000000
G01 X83.138438 Y111.999990 Z0.000000
G01 X138.564060 Y80.000010 Z0.000000
G00 Z0.000000

(End cutting path id: path4933)


(Start cutting path id: path4943)
(Change tool to Default tool)

G00 Z0.000000
G00 X193.989690 Y96.000000

G01 Z0.000000 F100.0(Penetrate)
G01 X249.415310 Y64.000000 Z0.000000 F400.000000
G00 Z0.000000

(End cutting path id: path4943)


(Start cutting path id: path4941)
(Change tool to Default tool)

G00 Z0.000000
G00 X249.415310 Y80.000010

G01 Z0.000000 F100.0(Penetrate)
G01 X249.415310 Y64.000000 Z0.000000 F400.000000
G00 Z0.000000

(End cutting path id: path4941)


(Start cutting path id: path4945)
(Change tool to Default tool)

G00 Z0.000000
G00 X304.840930 Y111.999990

G01 Z0.000000 F100.0(Penetrate)
G01 X304.840930 Y96.000000 Z0.000000 F400.000000
G00 Z0.000000

(End cutting path id: path4945)


(Start cutting path id: path4831)
(Change tool to Default tool)

G00 Z0.000000
G00 X387.736600 Y79.859020

G01 Z0.000000 F100.0(Penetrate)
G01 X470.875050 Y127.859010 Z0.000000 F400.000000
G01 X554.013480 Y79.859020 Z0.000000
G01 X470.875050 Y31.859020 Z0.000000
G01 X387.736600 Y79.859020 Z0.000000
G00 Z0.000000

(End cutting path id: path4831)


(Start cutting path id: path4839)
(Change tool to Default tool)

G00 Z0.000000
G00 X415.449430 Y95.859020

G01 Z0.000000 F100.0(Penetrate)
G01 X498.587860 Y47.859020 Z0.000000 F400.000000
G00 Z0.000000

(End cutting path id: path4839)


(Start cutting path id: path4837)
(Change tool to Default tool)

G00 Z0.000000
G00 X526.300660 Y95.859030

G01 Z0.000000 F100.0(Penetrate)
G01 X443.162230 Y47.859020 Z0.000000 F400.000000
G00 Z0.000000

(End cutting path id: path4837)


(Start cutting path id: path4833)
(Change tool to Default tool)

G00 Z0.000000
G00 X443.162240 Y111.859020

G01 Z0.000000 F100.0(Penetrate)
G01 X526.300670 Y63.859020 Z0.000000 F400.000000
G00 Z0.000000

(End cutting path id: path4833)


(Start cutting path id: path4835)
(Change tool to Default tool)

G00 Z0.000000
G00 X498.587860 Y111.859020

G01 Z0.000000 F100.0(Penetrate)
G01 X415.449430 Y63.859020 Z0.000000 F400.000000
G00 Z0.000000

(End cutting path id: path4835)


(Start cutting path id: path1083)
(Change tool to Default tool)

G00 Z0.000000
G00 X443.162240 Y207.859015

G01 Z0.000000 F100.0(Penetrate)
G01 X443.162240 Y175.859010 Z0.000000 F400.000000
G00 Z0.000000

(End cutting path id: path1083)


(Start cutting path id: path1081)
(Change tool to Default tool)

G00 Z0.000000
G00 X415.449420 Y223.859004

G01 Z0.000000 F100.0(Penetrate)
G01 X415.449420 Y191.859000 Z0.000000 F400.000000
G00 Z0.000000

(End cutting path id: path1081)


(Start cutting path id: path1077)
(Change tool to Default tool)

G00 Z0.000000
G00 X387.736620 Y239.859019

G01 Z0.000000 F100.0(Penetrate)
G01 X387.736620 Y207.859015 Z0.000000 F400.000000
G01 X470.875050 Y159.859030 Z0.000000
G01 X470.875050 Y191.859000 Z0.000000
G00 Z0.000000

(End cutting path id: path1077)


(Start cutting path id: path1085)
(Change tool to Default tool)

G00 Z0.000000
G00 X498.587860 Y207.859015

G01 Z0.000000 F100.0(Penetrate)
G01 X498.587860 Y175.859010 Z0.000000 F400.000000
G00 Z0.000000

(End cutting path id: path1085)


(Start cutting path id: path1087)
(Change tool to Default tool)

G00 Z0.000000
G00 X526.300680 Y223.859005

G01 Z0.000000 F100.0(Penetrate)
G01 X526.300680 Y191.859000 Z0.000000 F400.000000
G00 Z0.000000

(End cutting path id: path1087)


(Start cutting path id: path1079)
(Change tool to Default tool)

G00 Z0.000000
G00 X554.013480 Y239.859019

G01 Z0.000000 F100.0(Penetrate)
G01 X554.013480 Y207.859015 Z0.000000 F400.000000
G01 X470.875050 Y159.859030 Z0.000000
G00 Z0.000000

(End cutting path id: path1079)


(Start cutting path id: path1044)
(Change tool to Default tool)

G00 Z0.000000
G00 X526.300670 Y255.859011

G01 Z0.000000 F100.0(Penetrate)
G01 X443.162240 Y207.859005 Z0.000000 F400.000000
G00 Z0.000000

(End cutting path id: path1044)


(Start cutting path id: path1040)
(Change tool to Default tool)

G00 Z0.000000
G00 X415.449420 Y255.859011

G01 Z0.000000 F100.0(Penetrate)
G01 X498.587850 Y207.859015 Z0.000000 F400.000000
G00 Z0.000000

(End cutting path id: path1040)


(Start cutting path id: path1042)
(Change tool to Default tool)

G00 Z0.000000
G00 X498.587850 Y271.859011

G01 Z0.000000 F100.0(Penetrate)
G01 X415.449420 Y223.859010 Z0.000000 F400.000000
G00 Z0.000000

(End cutting path id: path1042)


(Start cutting path id: path1038)
(Change tool to Default tool)

G00 Z0.000000
G00 X387.736600 Y239.859010

G01 Z0.000000 F100.0(Penetrate)
G01 X470.875050 Y287.859005 Z0.000000 F400.000000
G01 X554.013480 Y239.859010 Z0.000000
G01 X470.875050 Y191.859010 Z0.000000
G01 X387.736600 Y239.859010 Z0.000000
G00 Z0.000000

(End cutting path id: path1038)


(Start cutting path id: path1046)
(Change tool to Default tool)

G00 Z0.000000
G00 X443.162230 Y271.859011

G01 Z0.000000 F100.0(Penetrate)
G01 X526.300660 Y223.859010 Z0.000000 F400.000000
G00 Z0.000000

(End cutting path id: path1046)


(Start cutting path id: path967)
(Change tool to Default tool)

G00 Z0.000000
G00 X581.459990 Y208.293895

G01 Z0.000000 F100.0(Penetrate)
G01 X664.591520 Y160.015980 Z0.000000 F400.000000
G00 Z0.000000

(End cutting path id: path967)


(Start cutting path id: path969)
(Change tool to Default tool)

G00 Z0.000000
G00 X664.591520 Y128.289900

G01 Z0.000000 F100.0(Penetrate)
G01 X581.974560 Y175.996810 Z0.000000 F400.000000
G00 Z0.000000

(End cutting path id: path969)


(Start cutting path id: path963)
(Change tool to Default tool)

G00 Z0.000000
G00 X609.172820 Y223.939310

G01 Z0.000000 F100.0(Penetrate)
G01 X609.372020 Y128.054310 Z0.000000 F400.000000
G00 Z0.000000

(End cutting path id: path963)


(Start cutting path id: path1007)
(Change tool to Default tool)

G00 Z0.000000
G00 X664.690590 Y96.240690

G01 Z0.000000 F100.0(Penetrate)
G01 X775.547330 Y160.237520 Z0.000000 F400.000000
G00 Z0.000000

(End cutting path id: path1007)


(Start cutting path id: path951)
(Change tool to Default tool)

G00 Z0.000000
G00 X748.251440 Y111.996810

G01 Z0.000000 F100.0(Penetrate)
G01 X831.389870 Y63.996810 Z0.000000 F400.000000
G00 Z0.000000

(End cutting path id: path951)


(Start cutting path id: path949)
(Change tool to Default tool)

G00 Z0.000000
G00 X831.389880 Y95.996810

G01 Z0.000000 F100.0(Penetrate)
G01 X748.251450 Y47.996810 Z0.000000 F400.000000
G00 Z0.000000

(End cutting path id: path949)


(Start cutting path id: path959)
(Change tool to Default tool)

G00 Z0.000000
G00 X776.229840 Y32.150150

G01 Z0.000000 F100.0(Penetrate)
G01 X775.964250 Y159.996810 Z0.000000 F400.000000
G00 Z0.000000

(End cutting path id: path959)


(Start cutting path id: path947)
(Change tool to Default tool)

G00 Z0.000000
G00 X803.677060 Y111.996810

G01 Z0.000000 F100.0(Penetrate)
G01 X720.538630 Y63.996810 Z0.000000 F400.000000
G00 Z0.000000

(End cutting path id: path947)


(Start cutting path id: path957)
(Change tool to Default tool)

G00 Z0.000000
G00 X693.091400 Y80.150140

G01 Z0.000000 F100.0(Penetrate)
G01 X692.825810 Y207.996815 Z0.000000 F400.000000
G00 Z0.000000

(End cutting path id: path957)


(Start cutting path id: path923)
(Change tool to Default tool)

G00 Z0.000000
G00 X693.041600 Y207.872235

G01 Z0.000000 F100.0(Penetrate)
G01 X581.773430 Y272.112940 Z0.000000 F400.000000
G00 Z0.000000

(End cutting path id: path923)


(Start cutting path id: path1005)
(Change tool to Default tool)

G00 Z0.000000
G00 X582.234660 Y240.153320

G01 Z0.000000 F100.0(Penetrate)
G01 X693.091400 Y304.150147 Z0.000000 F400.000000
G00 Z0.000000

(End cutting path id: path1005)


(Start cutting path id: path929)
(Change tool to Default tool)

G00 Z0.000000
G00 X693.091400 Y304.150147

G01 Z0.000000 F100.0(Penetrate)
G01 X692.825810 Y431.996810 Z0.000000 F400.000000
G00 Z0.000000

(End cutting path id: path929)


(Start cutting path id: path931)
(Change tool to Default tool)

G00 Z0.000000
G00 X692.825810 Y431.996810

G01 Z0.000000 F100.0(Penetrate)
G01 X775.964260 Y479.996810 Z0.000000 F400.000000
G01 X859.102690 Y431.996810 Z0.000000
G01 X775.964260 Y383.996811 Z0.000000
G01 X692.825810 Y431.996810 Z0.000000
G00 Z0.000000

(End cutting path id: path931)


(Start cutting path id: path933)
(Change tool to Default tool)

G00 Z0.000000
G00 X720.538630 Y447.996810

G01 Z0.000000 F100.0(Penetrate)
G01 X803.677060 Y399.996810 Z0.000000 F400.000000
G00 Z0.000000

(End cutting path id: path933)


(Start cutting path id: path840)
(Change tool to Default tool)

G00 Z0.000000
G00 X776.379920 Y351.763177

G01 Z0.000000 F100.0(Penetrate)
G01 X858.788020 Y303.820668 Z0.000000 F400.000000
G01 X859.103400 Y207.935675 Z0.000000
G01 X775.948350 Y159.993180 Z0.000000
G01 X692.710330 Y207.935675 Z0.000000
G01 X692.826510 Y303.820668 Z0.000000
G01 X776.379920 Y351.763177 Z0.000000
G00 Z0.000000

(End cutting path id: path840)


(Start cutting path id: path921)
(Change tool to Default tool)

G00 Z0.000000
G00 X776.381170 Y351.756102

G01 Z0.000000 F100.0(Penetrate)
G01 X665.113000 Y415.996810 Z0.000000 F400.000000
G00 Z0.000000

(End cutting path id: path921)


(Start cutting path id: path911)
(Change tool to Default tool)

G00 Z0.000000
G00 X637.397520 Y399.995270

G01 Z0.000000 F100.0(Penetrate)
G01 X637.815150 Y303.757233 Z0.000000 F400.000000
G00 Z0.000000

(End cutting path id: path911)


(Start cutting path id: path999)
(Change tool to Default tool)

G00 Z0.000000
G00 X693.240780 Y303.757233

G01 Z0.000000 F100.0(Penetrate)
G01 X581.972610 Y367.997939 Z0.000000 F400.000000
G00 Z0.000000

(End cutting path id: path999)


(Start cutting path id: path909)
(Change tool to Default tool)

G00 Z0.000000
G00 X581.972610 Y367.995685

G01 Z0.000000 F100.0(Penetrate)
G01 X665.109980 Y415.998550 Z0.000000 F400.000000
G01 X665.109980 Y319.995071 Z0.000000
G01 X582.323130 Y271.795560 Z0.000000
G01 X581.972610 Y367.995685 Z0.000000
G00 Z0.000000

(End cutting path id: path909)


(Start cutting path id: path1069)
(Change tool to Default tool)

G00 Z0.000000
G00 X554.013480 Y367.859000

G01 Z0.000000 F100.0(Penetrate)
G01 X554.013480 Y79.859030 Z0.000000 F400.000000
G00 Z0.000000

(End cutting path id: path1069)


(Start cutting path id: path943)
(Change tool to Default tool)

G00 Z0.000000
G00 X692.825810 Y79.996810

G01 Z0.000000 F100.0(Penetrate)
G01 X775.964260 Y127.996810 Z0.000000 F400.000000
G01 X859.102690 Y79.996810 Z0.000000
G01 X775.964260 Y31.996810 Z0.000000
G01 X692.825810 Y79.996810 Z0.000000
G00 Z0.000000

(End cutting path id: path943)


(Start cutting path id: path945)
(Change tool to Default tool)

G00 Z0.000000
G00 X720.538630 Y95.996810

G01 Z0.000000 F100.0(Penetrate)
G01 X803.677060 Y47.996810 Z0.000000 F400.000000
G00 Z0.000000

(End cutting path id: path945)


(Start cutting path id: path953)
(Change tool to Default tool)

G00 Z0.000000
G00 X859.102690 Y79.996810

G01 Z0.000000 F100.0(Penetrate)
G01 X858.837100 Y207.843475 Z0.000000 F400.000000
G00 Z0.000000

(End cutting path id: path953)


(Start cutting path id: path887)
(Change tool to Default tool)

G00 Z0.000000
G00 X859.097200 Y207.999995

G01 Z0.000000 F100.0(Penetrate)
G01 X969.953940 Y271.996810 Z0.000000 F400.000000
G00 Z0.000000

(End cutting path id: path887)


(Start cutting path id: path903)
(Change tool to Default tool)

G00 Z0.000000
G00 X969.947020 Y303.992818

G01 Z0.000000 F100.0(Penetrate)
G01 X887.330060 Y351.699730 Z0.000000 F400.000000
G00 Z0.000000

(End cutting path id: path903)


(Start cutting path id: path901)
(Change tool to Default tool)

G00 Z0.000000
G00 X886.815490 Y383.996811

G01 Z0.000000 F100.0(Penetrate)
G01 X969.947020 Y335.718897 Z0.000000 F400.000000
G00 Z0.000000

(End cutting path id: path901)


(Start cutting path id: path899)
(Change tool to Default tool)

G00 Z0.000000
G00 X942.234560 Y383.993019

G01 Z0.000000 F100.0(Penetrate)
G01 X942.433760 Y288.108020 Z0.000000 F400.000000
G00 Z0.000000

(End cutting path id: path899)


(Start cutting path id: path995)
(Change tool to Default tool)

G00 Z0.000000
G00 X970.370860 Y239.756100

G01 Z0.000000 F100.0(Penetrate)
G01 X859.102690 Y303.996812 Z0.000000 F400.000000
G00 Z0.000000

(End cutting path id: path995)


(Start cutting path id: path905)
(Change tool to Default tool)

G00 Z0.000000
G00 X859.097190 Y303.999991

G01 Z0.000000 F100.0(Penetrate)
G01 X969.406190 Y367.680563 Z0.000000 F400.000000
G00 Z0.000000

(End cutting path id: path905)


(Start cutting path id: path897)
(Change tool to Default tool)

G00 Z0.000000
G00 X914.528320 Y399.642230

G01 Z0.000000 F100.0(Penetrate)
G01 X914.727520 Y303.757231 Z0.000000 F400.000000
G00 Z0.000000

(End cutting path id: path897)


(Start cutting path id: path927)
(Change tool to Default tool)

G00 Z0.000000
G00 X859.368280 Y304.150147

G01 Z0.000000 F100.0(Penetrate)
G01 X859.102690 Y431.996810 Z0.000000 F400.000000
G00 Z0.000000

(End cutting path id: path927)


(Start cutting path id: path937)
(Change tool to Default tool)

G00 Z0.000000
G00 X831.389880 Y447.996810

G01 Z0.000000 F100.0(Penetrate)
G01 X748.251450 Y399.996810 Z0.000000 F400.000000
G00 Z0.000000

(End cutting path id: path937)


(Start cutting path id: path889)
(Change tool to Default tool)

G00 Z0.000000
G00 X775.958760 Y351.999987

G01 Z0.000000 F100.0(Penetrate)
G01 X886.815500 Y415.996810 Z0.000000 F400.000000
G00 Z0.000000

(End cutting path id: path889)


(Start cutting path id: path893)
(Change tool to Default tool)

G00 Z0.000000
G00 X887.462850 Y415.623060

G01 Z0.000000 F100.0(Penetrate)
G01 X969.406190 Y367.680563 Z0.000000 F400.000000
G01 X969.953930 Y271.996810 Z0.000000
G01 X887.263670 Y319.738065 Z0.000000
G01 X887.462850 Y415.623060 Z0.000000
G00 Z0.000000

(End cutting path id: path893)


(Start cutting path id: path935)
(Change tool to Default tool)

G00 Z0.000000
G00 X803.677060 Y463.996810

G01 Z0.000000 F100.0(Penetrate)
G01 X720.538630 Y415.996810 Z0.000000 F400.000000
G00 Z0.000000

(End cutting path id: path935)


(Start cutting path id: path939)
(Change tool to Default tool)

G00 Z0.000000
G00 X748.251440 Y463.996810

G01 Z0.000000 F100.0(Penetrate)
G01 X831.389870 Y415.996810 Z0.000000 F400.000000
G00 Z0.000000

(End cutting path id: path939)


(Start cutting path id: path854)
(Change tool to Default tool)

G00 Z0.000000
G00 X803.672270 Y335.999576

G01 Z0.000000 F100.0(Penetrate)
G01 X720.180460 Y288.203600 Z0.000000 F400.000000
G00 Z0.000000

(End cutting path id: path854)


(Start cutting path id: path850)
(Change tool to Default tool)

G00 Z0.000000
G00 X720.539340 Y288.002770

G01 Z0.000000 F100.0(Penetrate)
G01 X720.622340 Y191.954840 Z0.000000 F400.000000
G00 Z0.000000

(End cutting path id: path850)


(Start cutting path id: path879)
(Change tool to Default tool)

G00 Z0.000000
G00 X692.822440 Y240.000400

G01 Z0.000000 F100.0(Penetrate)
G01 X775.606810 Y192.204820 Z0.000000 F400.000000
G00 Z0.000000

(End cutting path id: path879)


(Start cutting path id: path848)
(Change tool to Default tool)

G00 Z0.000000
G00 X776.180740 Y255.878170

G01 Z0.000000 F100.0(Penetrate)
G01 X775.959810 Y159.993180 Z0.000000 F400.000000
G00 Z0.000000

(End cutting path id: path848)


(Start cutting path id: path881)
(Change tool to Default tool)

G00 Z0.000000
G00 X803.428790 Y271.859010

G01 Z0.000000 F100.0(Penetrate)
G01 X803.478590 Y175.830260 Z0.000000 F400.000000
G00 Z0.000000

(End cutting path id: path881)


(Start cutting path id: path997)
(Change tool to Default tool)

G00 Z0.000000
G00 X886.813550 Y192.273600

G01 Z0.000000 F100.0(Penetrate)
G01 X775.545380 Y256.514310 Z0.000000 F400.000000
G00 Z0.000000

(End cutting path id: path997)


(Start cutting path id: path852)
(Change tool to Default tool)

G00 Z0.000000
G00 X748.252140 Y272.002760

G01 Z0.000000 F100.0(Penetrate)
G01 X748.301940 Y175.974010 Z0.000000 F400.000000
G00 Z0.000000

(End cutting path id: path852)


(Start cutting path id: path1003)
(Change tool to Default tool)

G00 Z0.000000
G00 X665.113000 Y191.996810

G01 Z0.000000 F100.0(Penetrate)
G01 X775.422000 Y255.677380 Z0.000000 F400.000000
G00 Z0.000000

(End cutting path id: path1003)


(Start cutting path id: path883)
(Change tool to Default tool)

G00 Z0.000000
G00 X831.384730 Y288.006140

G01 Z0.000000 F100.0(Penetrate)
G01 X831.434530 Y191.977390 Z0.000000 F400.000000
G00 Z0.000000

(End cutting path id: path883)


(Start cutting path id: path983)
(Change tool to Default tool)

G00 Z0.000000
G00 X886.813550 Y192.273600

G01 Z0.000000 F100.0(Penetrate)
G01 X969.950920 Y240.276470 Z0.000000 F400.000000
G01 X969.950920 Y144.272980 Z0.000000
G01 X887.164070 Y96.073470 Z0.000000
G01 X886.813550 Y192.273600 Z0.000000
G00 Z0.000000

(End cutting path id: path983)


(Start cutting path id: path989)
(Change tool to Default tool)

G00 Z0.000000
G00 X914.526010 Y208.273395

G01 Z0.000000 F100.0(Penetrate)
G01 X914.943640 Y112.035350 Z0.000000 F400.000000
G00 Z0.000000

(End cutting path id: path989)


(Start cutting path id: path1001)
(Change tool to Default tool)

G00 Z0.000000
G00 X886.815500 Y95.996810

G01 Z0.000000 F100.0(Penetrate)
G01 X775.547330 Y160.237520 Z0.000000 F400.000000
G00 Z0.000000

(End cutting path id: path1001)


(Start cutting path id: path875)
(Change tool to Default tool)

G00 Z0.000000
G00 X859.285980 Y239.897340

G01 Z0.000000 F100.0(Penetrate)
G01 X775.794170 Y192.101360 Z0.000000 F400.000000
G00 Z0.000000

(End cutting path id: path875)


(Start cutting path id: path877)
(Change tool to Default tool)

G00 Z0.000000
G00 X692.577540 Y271.859010

G01 Z0.000000 F100.0(Penetrate)
G01 X775.361910 Y224.063430 Z0.000000 F400.000000
G00 Z0.000000

(End cutting path id: path877)


(Start cutting path id: path873)
(Change tool to Default tool)

G00 Z0.000000
G00 X859.097190 Y272.006350

G01 Z0.000000 F100.0(Penetrate)
G01 X775.605380 Y224.210370 Z0.000000 F400.000000
G00 Z0.000000

(End cutting path id: path873)


(Start cutting path id: path856)
(Change tool to Default tool)

G00 Z0.000000
G00 X720.887900 Y319.801507

G01 Z0.000000 F100.0(Penetrate)
G01 X803.672270 Y272.005930 Z0.000000 F400.000000
G00 Z0.000000

(End cutting path id: path856)


(Start cutting path id: path871)
(Change tool to Default tool)

G00 Z0.000000
G00 X831.739160 Y319.801507

G01 Z0.000000 F100.0(Penetrate)
G01 X748.247350 Y272.005530 Z0.000000 F400.000000
G00 Z0.000000

(End cutting path id: path871)


(Start cutting path id: path907)
(Change tool to Default tool)

G00 Z0.000000
G00 X693.240780 Y303.757233

G01 Z0.000000 F100.0(Penetrate)
G01 X581.972610 Y367.997939 Z0.000000 F400.000000
G00 Z0.000000

(End cutting path id: path907)


(Start cutting path id: path915)
(Change tool to Default tool)

G00 Z0.000000
G00 X609.685070 Y383.995478

G01 Z0.000000 F100.0(Penetrate)
G01 X610.102700 Y287.757440 Z0.000000 F400.000000
G00 Z0.000000

(End cutting path id: path915)


(Start cutting path id: path961)
(Change tool to Default tool)

G00 Z0.000000
G00 X582.107350 Y239.920140

G01 Z0.000000 F100.0(Penetrate)
G01 X664.050690 Y191.977640 Z0.000000 F400.000000
G01 X664.598430 Y96.293890 Z0.000000
G01 X581.908170 Y144.035140 Z0.000000
G01 X582.107350 Y239.920140 Z0.000000
G00 Z0.000000

(End cutting path id: path961)


(Start cutting path id: path965)
(Change tool to Default tool)

G00 Z0.000000
G00 X636.879060 Y208.290105

G01 Z0.000000 F100.0(Penetrate)
G01 X637.078260 Y112.405100 Z0.000000 F400.000000
G00 Z0.000000

(End cutting path id: path965)


(Start cutting path id: path919)
(Change tool to Default tool)

G00 Z0.000000
G00 X665.109980 Y351.998552

G01 Z0.000000 F100.0(Penetrate)
G01 X582.552500 Y304.056055 Z0.000000 F400.000000
G00 Z0.000000

(End cutting path id: path919)


(Start cutting path id: path1099)
(Change tool to Default tool)

G00 Z0.000000
G00 X526.300680 Y383.859015

G01 Z0.000000 F100.0(Penetrate)
G01 X526.300680 Y351.859000 Z0.000000 F400.000000
G00 Z0.000000

(End cutting path id: path1099)


(Start cutting path id: path1097)
(Change tool to Default tool)

G00 Z0.000000
G00 X498.587860 Y367.859010

G01 Z0.000000 F100.0(Penetrate)
G01 X498.587860 Y335.859005 Z0.000000 F400.000000
G00 Z0.000000

(End cutting path id: path1097)


(Start cutting path id: path1073)
(Change tool to Default tool)

G00 Z0.000000
G00 X470.875050 Y319.859022

G01 Z0.000000 F100.0(Penetrate)
G01 X470.875050 Y31.859020 Z0.000000 F400.000000
G00 Z0.000000

(End cutting path id: path1073)


(Start cutting path id: path1071)
(Change tool to Default tool)

G00 Z0.000000
G00 X470.875050 Y287.858993

G01 Z0.000000 F100.0(Penetrate)
G01 X470.875050 Y31.859020 Z0.000000 F400.000000
G00 Z0.000000

(End cutting path id: path1071)


(Start cutting path id: path1095)
(Change tool to Default tool)

G00 Z0.000000
G00 X443.162240 Y367.859010

G01 Z0.000000 F100.0(Penetrate)
G01 X443.162240 Y335.859005 Z0.000000 F400.000000
G00 Z0.000000

(End cutting path id: path1095)


(Start cutting path id: path1093)
(Change tool to Default tool)

G00 Z0.000000
G00 X415.449420 Y383.859005

G01 Z0.000000 F100.0(Penetrate)
G01 X415.449420 Y351.858999 Z0.000000 F400.000000
G00 Z0.000000

(End cutting path id: path1093)


(Start cutting path id: path1075)
(Change tool to Default tool)

G00 Z0.000000
G00 X387.736610 Y367.859000

G01 Z0.000000 F100.0(Penetrate)
G01 X387.736610 Y79.859020 Z0.000000 F400.000000
G00 Z0.000000

(End cutting path id: path1075)


(Start cutting path id: path4961)
(Change tool to Default tool)

G00 Z0.000000
G00 X138.564060 Y144.000000

G01 Z0.000000 F100.0(Penetrate)
G01 X83.138438 Y176.000000 Z0.000000 F400.000000
G01 X83.138438 Y160.000010 Z0.000000
G01 X83.138438 Y176.000000 Z0.000000
G01 X138.564060 Y207.999995 Z0.000000
G01 X180.133280 Y184.000000 Z0.000000
G00 Z0.000000

(End cutting path id: path4961)


(Start cutting path id: path4955)
(Change tool to Default tool)

G00 Z0.000000
G00 X138.564060 Y160.000010

G01 Z0.000000 F100.0(Penetrate)
G01 X138.564060 Y144.000000 Z0.000000 F400.000000
G00 Z0.000000

(End cutting path id: path4955)


(Start cutting path id: path4949)
(Change tool to Default tool)

G00 Z0.000000
G00 X83.138439 Y159.999980

G01 Z0.000000 F100.0(Penetrate)
G01 X124.707660 Y136.000000 Z0.000000 F400.000000
G00 Z0.000000

(End cutting path id: path4949)


(Start cutting path id: path4937)
(Change tool to Default tool)

G00 Z0.000000
G00 X83.138438 Y111.999990

G01 Z0.000000 F100.0(Penetrate)
G01 X83.138438 Y96.000000 Z0.000000 F400.000000
G00 Z0.000000

(End cutting path id: path4937)


(Start cutting path id: path1028)
(Change tool to Default tool)

G00 Z0.000000
G00 X27.712809 Y128.000000

G01 Z0.000000 F100.0(Penetrate)
G01 X193.989710 Y223.999973 Z0.000000 F400.000000
G01 X360.266560 Y128.000000 Z0.000000
G01 X193.989710 Y32.000000 Z0.000000
G01 X27.712809 Y128.000000 Z0.000000
G00 Z0.000000

(End cutting path id: path1028)


(Start cutting path id: path4577)
(Change tool to Default tool)

G00 Z0.000000
G00 X27.712814 Y527.999990

G01 Z0.000000 F100.0(Penetrate)
G01 X27.712814 Y511.999990 Z0.000000 F400.000000
G00 Z0.000000

(End cutting path id: path4577)


(Start cutting path id: path4567)
(Change tool to Default tool)

G00 Z0.000000
G00 X13.856408 Y535.999990

G01 Z0.000000 F100.0(Penetrate)
G01 X27.712814 Y527.999990 Z0.000000 F400.000000
G00 Z0.000000

(End cutting path id: path4567)


(Start cutting path id: path4565)
(Change tool to Default tool)

G00 Z0.000000
G00 X41.569220 Y535.999990

G01 Z0.000000 F100.0(Penetrate)
G01 X13.856408 Y551.999990 Z0.000000 F400.000000
G00 Z0.000000

(End cutting path id: path4565)


(Start cutting path id: path4541)
(Change tool to Default tool)

G00 Z0.000000
G00 X13.856407 Y568.000000

G01 Z0.000000 F100.0(Penetrate)
G01 X55.425626 Y544.000000 Z0.000000 F400.000000
G01 X55.425626 Y496.000000 Z0.000000
G00 Z0.000000

(End cutting path id: path4541)


(Start cutting path id: path4569)
(Change tool to Default tool)

G00 Z0.000000
G00 X83.138440 Y527.999990

G01 Z0.000000 F100.0(Penetrate)
G01 X96.994846 Y535.999990 Z0.000000 F400.000000
G00 Z0.000000

(End cutting path id: path4569)


(Start cutting path id: path4575)
(Change tool to Default tool)

G00 Z0.000000
G00 X83.138439 Y528.000000

G01 Z0.000000 F100.0(Penetrate)
G01 X83.138439 Y511.999990 Z0.000000 F400.000000
G00 Z0.000000

(End cutting path id: path4575)


(Start cutting path id: path4573)
(Change tool to Default tool)

G00 Z0.000000
G00 X69.282032 Y536.000000

G01 Z0.000000 F100.0(Penetrate)
G01 X69.282032 Y503.999990 Z0.000000 F400.000000
G00 Z0.000000

(End cutting path id: path4573)


(Start cutting path id: path4579)
(Change tool to Default tool)

G00 Z0.000000
G00 X41.569220 Y536.000000

G01 Z0.000000 F100.0(Penetrate)
G01 X41.569220 Y503.999990 Z0.000000 F400.000000
G00 Z0.000000

(End cutting path id: path4579)


(Start cutting path id: path4543)
(Change tool to Default tool)

G00 Z0.000000
G00 X55.425626 Y544.000000

G01 Z0.000000 F100.0(Penetrate)
G01 X96.994845 Y568.000000 Z0.000000 F400.000000
G00 Z0.000000

(End cutting path id: path4543)


(Start cutting path id: path4551)
(Change tool to Default tool)

G00 Z0.000000
G00 X83.138439 Y576.000000

G01 Z0.000000 F100.0(Penetrate)
G01 X55.425626 Y560.000000 Z0.000000 F400.000000
G00 Z0.000000

(End cutting path id: path4551)


(Start cutting path id: path4563)
(Change tool to Default tool)

G00 Z0.000000
G00 X55.425626 Y560.000000

G01 Z0.000000 F100.0(Penetrate)
G01 X27.712814 Y576.000000 Z0.000000 F400.000000
G00 Z0.000000

(End cutting path id: path4563)


(Start cutting path id: path4561)
(Change tool to Default tool)

G00 Z0.000000
G00 X41.569220 Y584.000000

G01 Z0.000000 F100.0(Penetrate)
G01 X55.425626 Y576.000000 Z0.000000 F400.000000
G00 Z0.000000

(End cutting path id: path4561)


(Start cutting path id: path4559)
(Change tool to Default tool)

G00 Z0.000000
G00 X55.425626 Y576.000000

G01 Z0.000000 F100.0(Penetrate)
G01 X69.282032 Y584.000000 Z0.000000 F400.000000
G00 Z0.000000

(End cutting path id: path4559)


(Start cutting path id: path4547)
(Change tool to Default tool)

G00 Z0.000000
G00 X55.425626 Y576.000000

G01 Z0.000000 F100.0(Penetrate)
G01 X27.712814 Y560.000000 Z0.000000 F400.000000
G01 X27.712814 Y528.000000 Z0.000000
G01 X55.425626 Y511.999990 Z0.000000
G01 X83.138439 Y528.000000 Z0.000000
G01 X83.138439 Y560.000000 Z0.000000
G01 X55.425626 Y576.000000 Z0.000000
G00 Z0.000000

(End cutting path id: path4547)


(Start cutting path id: path4527)
(Change tool to Default tool)

G00 Z0.000000
G00 X55.425626 Y592.000000

G01 Z0.000000 F100.0(Penetrate)
G01 X13.856407 Y568.000000 Z0.000000 F400.000000
G01 X13.856407 Y519.999990 Z0.000000
G01 X55.425626 Y496.000000 Z0.000000
G01 X96.994845 Y519.999990 Z0.000000
G01 X96.994845 Y568.000000 Z0.000000
G01 X55.425626 Y592.000000 Z0.000000
G00 Z0.000000

(End cutting path id: path4527)


(Start cutting path id: path4553)
(Change tool to Default tool)

G00 Z0.000000
G00 X41.569220 Y552.000000

G01 Z0.000000 F100.0(Penetrate)
G01 X13.856407 Y536.000000 Z0.000000 F400.000000
G00 Z0.000000

(End cutting path id: path4553)


(Start cutting path id: path4545)
(Change tool to Default tool)

G00 Z0.000000
G00 X41.569220 Y552.000000

G01 Z0.000000 F100.0(Penetrate)
G01 X41.569220 Y536.000000 Z0.000000 F400.000000
G01 X55.425626 Y528.000000 Z0.000000
G01 X69.282032 Y536.000000 Z0.000000
G01 X69.282032 Y552.000000 Z0.000000
G01 X55.425626 Y560.000000 Z0.000000
G01 X41.569220 Y552.000000 Z0.000000
G00 Z0.000000

(End cutting path id: path4545)


(Start cutting path id: path4571)
(Change tool to Default tool)

G00 Z0.000000
G00 X96.994846 Y551.999990

G01 Z0.000000 F100.0(Penetrate)
G01 X69.282033 Y535.999990 Z0.000000 F400.000000
G00 Z0.000000

(End cutting path id: path4571)


(Start cutting path id: path1048)
(Change tool to Default tool)

G00 Z0.000000
G00 X387.736590 Y399.859030

G01 Z0.000000 F100.0(Penetrate)
G01 X470.875050 Y447.859030 Z0.000000 F400.000000
G01 X554.013480 Y399.859030 Z0.000000
G01 X470.875050 Y351.859015 Z0.000000
G01 X387.736590 Y399.859030 Z0.000000
G00 Z0.000000

(End cutting path id: path1048)


(Start cutting path id: path1089)
(Change tool to Default tool)

G00 Z0.000000
G00 X387.736620 Y399.859030

G01 Z0.000000 F100.0(Penetrate)
G01 X387.736620 Y367.859020 Z0.000000 F400.000000
G01 X470.875050 Y319.859022 Z0.000000
G01 X470.875050 Y351.858999 Z0.000000
G00 Z0.000000

(End cutting path id: path1089)


(Start cutting path id: path1054)
(Change tool to Default tool)

G00 Z0.000000
G00 X526.300670 Y415.859030

G01 Z0.000000 F100.0(Penetrate)
G01 X443.162240 Y367.859010 Z0.000000 F400.000000
G00 Z0.000000

(End cutting path id: path1054)


(Start cutting path id: path1050)
(Change tool to Default tool)

G00 Z0.000000
G00 X415.449420 Y415.859030

G01 Z0.000000 F100.0(Penetrate)
G01 X498.587850 Y367.859020 Z0.000000 F400.000000
G00 Z0.000000

(End cutting path id: path1050)


(Start cutting path id: path1091)
(Change tool to Default tool)

G00 Z0.000000
G00 X554.013480 Y399.859030

G01 Z0.000000 F100.0(Penetrate)
G01 X554.013480 Y367.859020 Z0.000000 F400.000000
G01 X470.875050 Y319.859022 Z0.000000
G00 Z0.000000

(End cutting path id: path1091)


(Start cutting path id: path1052)
(Change tool to Default tool)

G00 Z0.000000
G00 X498.587850 Y431.859040

G01 Z0.000000 F100.0(Penetrate)
G01 X415.449420 Y383.859025 Z0.000000 F400.000000
G00 Z0.000000

(End cutting path id: path1052)


(Start cutting path id: path1056)
(Change tool to Default tool)

G00 Z0.000000
G00 X443.162230 Y431.859040

G01 Z0.000000 F100.0(Penetrate)
G01 X526.300660 Y383.859025 Z0.000000 F400.000000
G00 Z0.000000

(End cutting path id: path1056)


(Start cutting path id: path917)
(Change tool to Default tool)

G00 Z0.000000
G00 X664.532040 Y383.661396

G01 Z0.000000 F100.0(Penetrate)
G01 X581.974560 Y335.718897 Z0.000000 F400.000000
G00 Z0.000000

(End cutting path id: path917)


(Start cutting path id: path913)
(Change tool to Default tool)

G00 Z0.000000
G00 X664.532040 Y383.661396

G01 Z0.000000 F100.0(Penetrate)
G01 X581.974560 Y335.718897 Z0.000000 F400.000000
G00 Z0.000000

(End cutting path id: path913)


(Start cutting path id: path869)
(Change tool to Default tool)

G00 Z0.000000
G00 X748.600360 Y335.801716

G01 Z0.000000 F100.0(Penetrate)
G01 X831.384730 Y288.006140 Z0.000000 F400.000000
G00 Z0.000000

(End cutting path id: path869)


(Start cutting path id: path846)
(Change tool to Default tool)

G00 Z0.000000
G00 X858.788020 Y303.820668

G01 Z0.000000 F100.0(Penetrate)
G01 X775.959810 Y256.005730 Z0.000000 F400.000000
G01 X693.141890 Y303.820668 Z0.000000
G00 Z0.000000

(End cutting path id: path846)


(Start cutting path id: path867)
(Change tool to Default tool)

G00 Z0.000000
G00 X748.600360 Y335.801716

G01 Z0.000000 F100.0(Penetrate)
G01 X831.384730 Y288.006140 Z0.000000 F400.000000
G00 Z0.000000

(End cutting path id: path867)


(Start cutting path id: path985)
(Change tool to Default tool)

G00 Z0.000000
G00 X942.238460 Y224.273190

G01 Z0.000000 F100.0(Penetrate)
G01 X942.656090 Y128.035140 Z0.000000 F400.000000
G00 Z0.000000

(End cutting path id: path985)


(Start cutting path id: path993)
(Change tool to Default tool)

G00 Z0.000000
G00 X969.950920 Y176.276470

G01 Z0.000000 F100.0(Penetrate)
G01 X887.393440 Y128.333970 Z0.000000 F400.000000
G00 Z0.000000

(End cutting path id: path993)


(Start cutting path id: path991)
(Change tool to Default tool)

G00 Z0.000000
G00 X969.372980 Y207.939315

G01 Z0.000000 F100.0(Penetrate)
G01 X886.815500 Y159.996810 Z0.000000 F400.000000
G00 Z0.000000

(End cutting path id: path991)


(Start cutting path id: path987)
(Change tool to Default tool)

G00 Z0.000000
G00 X969.372980 Y207.939315

G01 Z0.000000 F100.0(Penetrate)
G01 X886.815500 Y159.996810 Z0.000000 F400.000000
G00 Z0.000000

(End cutting path id: path987)


(Start cutting path id: path941)
(Change tool to Default tool)

G00 Z0.000000
G00 X775.964260 Y479.996810

G01 Z0.000000 F100.0(Penetrate)
G01 X775.959260 Y256.005730 Z0.000000 F400.000000
G00 Z0.000000

(End cutting path id: path941)


(Footer)
M5
G00 X0.0000 Y0.0000
M2
(Using default footer. To add your own footer create file "footer" in the output dir.)
(end)
%