%
(Header)
(Generated by gcodetools from Inkscape.)
(Using default header. To add your own header create file "header" in the output dir.)
M3
(Header end.)
G21 (All units in mm)

(Start cutting path id: path23914)
(Change tool to Default tool)

G00 Z0.000000
G00 X210.532740 Y297.467262

G01 Z0.000000 F100.0(Penetrate)
G01 X0.377976 Y-0.377980 Z0.000000 F400.000000
G01 X210.532740 Y297.467262 Z0.000000
G00 Z0.000000

(End cutting path id: path23914)


(Start cutting path id: path23912)
(Change tool to Default tool)

G00 Z0.000000
G00 X0.000000 Y297.089286

G01 Z0.000000 F100.0(Penetrate)
G01 X0.377976 Y-0.377980 Z0.000000 F400.000000
G01 X210.532740 Y-0.377980 Z0.000000
G01 X0.000000 Y297.089286 Z0.000000
G00 Z0.000000

(End cutting path id: path23912)


(Start cutting path id: path23910)
(Change tool to Default tool)

G00 Z0.000000
G00 X0.000000 Y297.089286

G01 Z0.000000 F100.0(Penetrate)
G01 X210.532740 Y-0.377980 Z0.000000 F400.000000
G01 X210.532740 Y297.467262 Z0.000000
G01 X0.000000 Y297.089286 Z0.000000
G00 Z0.000000

(End cutting path id: path23910)


(Footer)
M5
G00 X0.0000 Y0.0000
M2
(Using default footer. To add your own footer create file "footer" in the output dir.)
(end)
%