%
(Header)
(Generated by gcodetools from Inkscape.)
(Using default header. To add your own header create file "header" in the output dir.)
M3
(Header end.)
G21 (All units in mm)

(Start cutting path id: path815)
(Change tool to Default tool)

G00 Z0.000000
G00 X41.577381 Y276.300596

G01 Z0.000000 F100.0(Penetrate)
G01 X69.041206 Y284.915597 Z0.000000 F400.000000
G01 X96.478421 Y289.718750 Z0.000000
G01 X117.450751 Y290.093751 Z0.000000
G01 X133.425592 Y285.868118 Z0.000000
G01 X143.859862 Y276.246260 Z0.000000
G01 X148.544640 Y256.645835 Z0.000000
G01 X149.455188 Y213.175580 Z0.000000
G01 X152.229910 Y200.894347 Z0.000000
G01 X155.315141 Y194.155810 Z0.000000
G01 X158.750000 Y191.633930 Z0.000000
G01 X154.214280 Y158.372020 Z0.000000
G01 X80.508926 Y176.136910 Z0.000000
G01 X80.130951 Y223.005954 Z0.000000
G01 X72.162884 Y216.428274 Z0.000000
G01 X62.838541 Y214.926713 Z0.000000
G01 X57.491891 Y217.698354 Z0.000000
G01 X49.833798 Y228.905926 Z0.000000
G01 X45.664407 Y242.910072 Z0.000000
G01 X41.577381 Y276.300596 Z0.000000
G01 X41.577381 Y276.300596 Z0.000000
G00 Z0.000000

(End cutting path id: path815)


(Footer)
M5
G00 X0.0000 Y0.0000
M2
(Using default footer. To add your own footer create file "footer" in the output dir.)
(end)
%