%
(Header)
(Generated by gcodetools from Inkscape.)
(Using default header. To add your own header create file "header" in the output dir.)
M3
(Header end.)
G21 (All units in mm)

(Start cutting path id: path815)
(Change tool to Default tool)

G00 Z5.000000
G00 X41.577381 Y276.300596

G01 Z-0.125000 F100.0(Penetrate)
G02 X69.041206 Y284.915597 Z-0.125000 I84.086302 J-219.975770 F400.000000
G02 X96.478421 Y289.718750 Z-0.125000 I48.212363 J-194.638277
G02 X117.450751 Y290.093751 Z-0.125000 I12.663223 J-121.566936
G02 X133.425592 Y285.868118 Z-0.125000 I-2.965420 J-43.519610
G02 X143.859862 Y276.246260 Z-0.125000 I-10.572249 J-21.933473
G02 X148.544640 Y256.645835 Z-0.125000 I-29.849995 J-17.494647
G03 X149.455188 Y213.175580 Z-0.125000 I265.431198 J-16.184821
G03 X152.229910 Y200.894347 Z-0.125000 I52.565500 J5.422157
G03 X155.315141 Y194.155810 Z-0.125000 I39.841898 J14.166010
G03 X158.750000 Y191.633930 Z-0.125000 I4.538183 J2.580992
G01 X154.214280 Y158.372020 Z-0.125000
G01 X80.508926 Y176.136910 Z-0.125000
G01 X80.130951 Y223.005954 Z-0.125000
G02 X72.162884 Y216.428274 Z-0.125000 I-22.219178 J18.800842
G02 X62.838541 Y214.926713 Z-0.125000 I-6.706271 J11.942594
G02 X57.491891 Y217.698354 Z-0.125000 I2.040751 J10.479534
G02 X49.833798 Y228.905926 Z-0.125000 I22.828249 J23.818620
G02 X45.664407 Y242.910072 Z-0.125000 I65.749117 J27.197926
G02 X41.577381 Y276.300596 Z-0.125000 I255.580896 J48.228692
G01 X41.577381 Y276.300596 Z-0.125000
G00 Z5.000000

(End cutting path id: path815)


(Footer)
M5
G00 X0.0000 Y0.0000
M2
(Using default footer. To add your own footer create file "footer" in the output dir.)
(end)
%